;FLAVOR:Marlin
;TIME:36844
;Filament used: 35.9452m
;Layer height: 0.28
;MINX:10.2
;MINY:19.2
;MINZ:0.28
;MAXX:209.8
;MAXY:218.8
;MAXZ:2.8
;Generated with Cura_SteamEngine 4.11.0
M140 S60
M105
M190 S60
M104 S200
M105
M109 S200
M82 ;absolute extrusion mode
; Ender 3 Custom Start G-code
G92 E0 ; Reset Extruder
(G28 ; Home all axes)(Comented Out Due to Composite)
G1 Z2.0 F3000 ; Move Z Axis up little to prevent scratching of Heat Bed
G1 X0.1 Y20 Z0.3 F5000.0 ; Move to start position
G1 X0.1 Y200.0 Z0.3 F1500.0 E15 ; Draw the first line
G1 X0.4 Y200.0 Z0.3 F5000.0 ; Move to side a little
G1 X0.4 Y20 Z0.3 F1500.0 E30 ; Draw the second line
G92 E0 ; Reset Extruder
G1 Z2.0 F3000 ; Move Z Axis up little to prevent scratching of Heat Bed
G1 X5 Y20 Z0.3 F5000.0 ; Move over to prevent blob squish
G92 E0
G92 E0
G1 F1500 E-6.5
;LAYER_COUNT:10
;LAYER:0
M107
G1 F300 Z0.48
;MESH:FullScaleChessBoardCOMP3Structure.STL
G0 F6000 X27.409 Y186.334 Z0.48
;TYPE:WALL-INNER
G1 F300 Z0.28
G1 F1500 E0
G1 F1200 X27.409 Y176.976 E0.43575
G1 X25.13 Y176.976 E0.54187
G1 X25.13 Y173.815 E0.68906
G1 X19.43 Y173.815 E0.95447
G1 X19.43 Y176.975 E1.10162
G1 X17.349 Y176.975 E1.19852
G1 X17.15 Y176.975 E1.20778
G1 X17.15 Y177.174 E1.21378
G1 X17.151 Y186.334 E1.64031
G1 X27.409 Y186.334 E2.11796
G0 F6000 X27.009 Y185.934
;TYPE:WALL-OUTER
G1 F1200 X27.009 Y177.376 E2.51646
G1 X24.73 Y177.376 E2.62258
G1 X24.73 Y174.215 E2.76977
G1 X19.83 Y174.215 E2.99793
G1 X19.83 Y177.375 E3.14507
G1 X17.55 Y177.375 E3.25124
G1 X17.551 Y185.934 E3.64978
G1 X27.009 Y185.934 E4.09019
G0 F6000 X27.509 Y185.934
G0 X27.479 Y211.466
G0 X27.409 Y211.396
;TYPE:WALL-INNER
G1 F1200 X27.409 Y202.038 E4.52593
G1 X25.13 Y202.038 E4.63205
G1 X25.13 Y198.878 E4.7792
G1 X19.43 Y198.878 E5.04461
G1 X19.43 Y202.037 E5.19171
G1 X17.349 Y202.037 E5.28861
G1 X17.15 Y202.037 E5.29788
G1 X17.15 Y202.236 E5.30387
G1 X17.151 Y211.396 E5.7304
G1 X27.409 Y211.396 E6.20805
G0 F6000 X27.009 Y210.996
;TYPE:WALL-OUTER
G1 F1200 X27.009 Y202.438 E6.60655
G1 X24.73 Y202.438 E6.71267
G1 X24.73 Y199.278 E6.85981
G1 X19.83 Y199.278 E7.08798
G1 X19.83 Y202.437 E7.23507
G1 X17.55 Y202.437 E7.34124
G1 X17.551 Y210.996 E7.73978
G1 X27.009 Y210.996 E8.18019
G0 F6000 X27.509 Y210.996
G0 X42.186 Y211.424
G0 X52.541 Y211.466
G0 X52.471 Y211.396
;TYPE:WALL-INNER
G1 F1200 X52.471 Y202.038 E8.61594
G1 X50.193 Y202.038 E8.72201
G1 X50.193 Y198.878 E8.86915
G1 X44.492 Y198.878 E9.13461
G1 X44.492 Y202.037 E9.28171
G1 X42.412 Y202.037 E9.37856
G1 X42.213 Y202.037 E9.38783
G1 X42.213 Y202.236 E9.39382
G1 X42.214 Y211.396 E9.82035
G1 X52.471 Y211.396 E10.29796
G0 F6000 X52.071 Y210.996
;TYPE:WALL-OUTER
G1 F1200 X52.071 Y202.438 E10.69646
G1 X49.793 Y202.438 E10.80253
G1 X49.793 Y199.278 E10.94967
G1 X44.892 Y199.278 E11.17789
G1 X44.892 Y202.437 E11.32498
G1 X42.613 Y202.437 E11.4311
G1 X42.614 Y210.996 E11.82964
G1 X52.071 Y210.996 E12.27
G0 F6000 X52.571 Y210.996
G0 X52.541 Y186.404
G0 X52.471 Y186.334
;TYPE:WALL-INNER
G1 F1200 X52.471 Y176.976 E12.70575
G1 X50.193 Y176.976 E12.81182
G1 X50.193 Y173.815 E12.95901
G1 X44.492 Y173.815 E13.22447
G1 X44.492 Y176.975 E13.37162
G1 X42.412 Y176.975 E13.46847
G1 X42.213 Y176.975 E13.47774
G1 X42.213 Y177.174 E13.48373
G1 X42.214 Y186.334 E13.91026
G1 X52.471 Y186.334 E14.38787
G0 F6000 X52.071 Y185.934
;TYPE:WALL-OUTER
G1 F1200 X52.071 Y177.376 E14.78637
G1 X49.793 Y177.376 E14.89244
G1 X49.793 Y174.215 E15.03963
G1 X44.892 Y174.215 E15.26784
G1 X44.892 Y177.375 E15.41498
G1 X42.613 Y177.375 E15.5211
G1 X42.614 Y185.934 E15.91964
G1 X52.071 Y185.934 E16.36
G1 F1500 E9.86
G0 F6000 X52.571 Y185.934
G0 X67.247 Y101.76
G0 X77.562 Y86.112
G0 X77.604 Y61.092
G1 F1500 E16.36
G0 F6000 X77.534 Y61.022
;TYPE:WALL-INNER
G1 F1200 X77.534 Y51.664 E16.79575
G1 X75.255 Y51.664 E16.90187
G1 X75.255 Y48.503 E17.04906
G1 X69.555 Y48.503 E17.31447
G1 X69.555 Y51.663 E17.46162
G1 X67.474 Y51.663 E17.55852
G1 X67.275 Y51.663 E17.56778
G1 X67.275 Y51.862 E17.57378
G1 X67.276 Y61.022 E18.00031
G1 X77.534 Y61.022 E18.47796
G0 F6000 X77.134 Y60.622
;TYPE:WALL-OUTER
G1 F1200 X77.134 Y52.064 E18.87646
G1 X74.855 Y52.064 E18.98258
G1 X74.855 Y48.903 E19.12977
G1 X69.955 Y48.903 E19.35793
G1 X69.955 Y52.063 E19.50508
G1 X67.675 Y52.063 E19.61124
G1 X67.676 Y60.622 E20.00978
G1 X77.134 Y60.622 E20.45019
G0 F6000 X77.634 Y60.622
G0 X77.604 Y86.154
G0 X77.534 Y86.084
;TYPE:WALL-INNER
G1 F1200 X77.534 Y76.726 E20.88594
G1 X75.255 Y76.726 E20.99206
G1 X75.255 Y73.565 E21.13925
G1 X69.555 Y73.565 E21.40466
G1 X69.555 Y76.725 E21.5518
G1 X67.474 Y76.725 E21.6487
G1 X67.275 Y76.725 E21.65797
G1 X67.275 Y76.924 E21.66397
G1 X67.276 Y86.084 E22.09049
G1 X77.534 Y86.084 E22.56815
G0 F6000 X77.134 Y85.684
;TYPE:WALL-OUTER
G1 F1200 X77.134 Y77.126 E22.96665
G1 X74.855 Y77.126 E23.07277
G1 X74.855 Y73.965 E23.21996
G1 X69.955 Y73.965 E23.44812
G1 X69.955 Y77.125 E23.59526
G1 X67.675 Y77.125 E23.70143
G1 X67.676 Y85.684 E24.09997
G1 X77.134 Y85.684 E24.54038
G1 F1500 E18.04038
G0 F6000 X77.634 Y85.684
G0 X92.311 Y86.112
G0 X192.519 Y86.154
G1 F1500 E24.54038
G0 F6000 X192.589 Y86.084
;TYPE:WALL-INNER
G1 F1200 X202.846 Y86.084 E25.01798
G1 X202.846 Y76.726 E25.45373
G1 X200.567 Y76.726 E25.55985
G1 X200.567 Y73.565 E25.70704
G1 X194.867 Y73.565 E25.97246
G1 X194.867 Y76.725 E26.1196
G1 X192.787 Y76.725 E26.21645
G1 X192.588 Y76.725 E26.22572
G1 X192.588 Y76.924 E26.23172
G1 X192.589 Y86.084 E26.65824
G0 F6000 X192.989 Y85.684
;TYPE:WALL-OUTER
G1 F1200 X202.446 Y85.684 E27.0986
G1 X202.446 Y77.126 E27.4971
G1 X200.167 Y77.126 E27.60322
G1 X200.167 Y73.965 E27.75041
G1 X195.267 Y73.965 E27.97857
G1 X195.267 Y77.125 E28.12571
G1 X192.988 Y77.125 E28.23183
G1 X192.989 Y85.684 E28.63038
G0 F6000 X192.989 Y86.184
G0 X192.561 Y86.112
G0 X192.519 Y61.092
G0 X192.589 Y61.022
;TYPE:WALL-INNER
G1 F1200 X202.846 Y61.022 E29.10799
G1 X202.846 Y51.664 E29.54373
G1 X200.567 Y51.664 E29.64985
G1 X200.567 Y48.503 E29.79704
G1 X194.867 Y48.503 E30.06246
G1 X194.867 Y51.663 E30.2096
G1 X192.787 Y51.663 E30.30645
G1 X192.588 Y51.663 E30.31572
G1 X192.588 Y51.862 E30.32172
G1 X192.589 Y61.022 E30.74824
G0 F6000 X192.989 Y60.622
;TYPE:WALL-OUTER
G1 F1200 X202.446 Y60.622 E31.1886
G1 X202.446 Y52.064 E31.5871
G1 X200.167 Y52.064 E31.69322
G1 X200.167 Y48.903 E31.84041
G1 X195.267 Y48.903 E32.06857
G1 X195.267 Y52.063 E32.21571
G1 X192.988 Y52.063 E32.32183
G1 X192.989 Y60.622 E32.72038
G0 F6000 X192.989 Y61.122
G0 X192.561 Y61.05
G0 X192.519 Y36.029
G0 X192.589 Y35.959
;TYPE:WALL-INNER
G1 F1200 X202.846 Y35.959 E33.19799
G1 X202.846 Y26.601 E33.63373
G1 X200.567 Y26.601 E33.73985
G1 X200.567 Y23.44 E33.88704
G1 X194.867 Y23.44 E34.15246
G1 X194.867 Y26.6 E34.2996
G1 X192.787 Y26.6 E34.39645
G1 X192.588 Y26.6 E34.40572
G1 X192.588 Y26.799 E34.41172
G1 X192.589 Y35.959 E34.83824
G0 F6000 X192.989 Y35.559
;TYPE:WALL-OUTER
G1 F1200 X202.446 Y35.559 E35.2786
G1 X202.446 Y27.001 E35.6771
G1 X200.167 Y27.001 E35.78322
G1 X200.167 Y23.84 E35.93041
G1 X195.267 Y23.84 E36.15857
G1 X195.267 Y27 E36.30571
G1 X192.988 Y27 E36.41183
G1 X192.989 Y35.559 E36.81038
G0 F6000 X192.989 Y36.059
G0 X167.456 Y36.029
G0 X167.526 Y35.959
;TYPE:WALL-INNER
G1 F1200 X177.784 Y35.959 E37.28803
G1 X177.784 Y26.601 E37.72378
G1 X175.505 Y26.601 E37.8299
G1 X175.505 Y23.44 E37.97709
G1 X169.805 Y23.44 E38.24251
G1 X169.805 Y26.6 E38.38965
G1 X167.724 Y26.6 E38.48655
G1 X167.525 Y26.6 E38.49581
G1 X167.525 Y26.799 E38.50181
G1 X167.526 Y35.959 E38.92834
G0 F6000 X167.926 Y35.559
;TYPE:WALL-OUTER
G1 F1200 X177.384 Y35.559 E39.36874
G1 X177.384 Y27.001 E39.76724
G1 X175.105 Y27.001 E39.87336
G1 X175.105 Y23.84 E40.02055
G1 X170.205 Y23.84 E40.24871
G1 X170.205 Y27 E40.39586
G1 X167.925 Y27 E40.50202
G1 X167.926 Y35.559 E40.90056
G0 F6000 X167.926 Y36.059
G0 X142.394 Y36.029
G0 X142.464 Y35.959
;TYPE:WALL-INNER
G1 F1200 X152.721 Y35.959 E41.37817
G1 X152.721 Y26.601 E41.81392
G1 X150.442 Y26.601 E41.92004
G1 X150.442 Y23.44 E42.06723
G1 X144.742 Y23.44 E42.33265
G1 X144.742 Y26.6 E42.47979
G1 X142.662 Y26.6 E42.57664
G1 X142.463 Y26.6 E42.58591
G1 X142.463 Y26.799 E42.5919
G1 X142.464 Y35.959 E43.01843
G0 F6000 X142.864 Y35.559
;TYPE:WALL-OUTER
G1 F1200 X152.321 Y35.559 E43.45879
G1 X152.321 Y27.001 E43.85729
G1 X150.042 Y27.001 E43.96341
G1 X150.042 Y23.84 E44.11059
G1 X145.142 Y23.84 E44.33876
G1 X145.142 Y27 E44.4859
G1 X142.863 Y27 E44.59202
G1 X142.864 Y35.559 E44.99056
G0 F6000 X142.864 Y36.059
G0 X142.435 Y51.635
G0 X142.394 Y61.092
G0 X142.464 Y61.022
;TYPE:WALL-INNER
G1 F1200 X152.721 Y61.022 E45.46817
G1 X152.721 Y51.664 E45.90392
G1 X150.442 Y51.664 E46.01004
G1 X150.442 Y48.503 E46.15723
G1 X144.742 Y48.503 E46.42265
G1 X144.742 Y51.663 E46.56979
G1 X142.662 Y51.663 E46.66664
G1 X142.463 Y51.663 E46.67591
G1 X142.463 Y51.862 E46.6819
G1 X142.464 Y61.022 E47.10843
G0 F6000 X142.864 Y60.622
;TYPE:WALL-OUTER
G1 F1200 X152.321 Y60.622 E47.54879
G1 X152.321 Y52.064 E47.94729
G1 X150.042 Y52.064 E48.05341
G1 X150.042 Y48.903 E48.2006
G1 X145.142 Y48.903 E48.42876
G1 X145.142 Y52.063 E48.5759
G1 X142.863 Y52.063 E48.68202
G1 X142.864 Y60.622 E49.08057
G0 F6000 X142.864 Y61.122
G0 X167.456 Y61.092
G0 X167.526 Y61.022
;TYPE:WALL-INNER
G1 F1200 X177.784 Y61.022 E49.55822
G1 X177.784 Y51.664 E49.99397
G1 X175.505 Y51.664 E50.10009
G1 X175.505 Y48.503 E50.24728
G1 X169.805 Y48.503 E50.51269
G1 X169.805 Y51.663 E50.65984
G1 X167.724 Y51.663 E50.75674
G1 X167.525 Y51.663 E50.766
G1 X167.525 Y51.862 E50.772
G1 X167.526 Y61.022 E51.19853
G0 F6000 X167.926 Y60.622
;TYPE:WALL-OUTER
G1 F1200 X177.384 Y60.622 E51.63893
G1 X177.384 Y52.064 E52.03743
G1 X175.105 Y52.064 E52.14355
G1 X175.105 Y48.903 E52.29074
G1 X170.205 Y48.903 E52.5189
G1 X170.205 Y52.063 E52.66604
G1 X167.925 Y52.063 E52.77221
G1 X167.926 Y60.622 E53.17075
G0 F6000 X167.926 Y61.122
G0 X167.497 Y76.697
G0 X167.456 Y86.154
G0 X167.526 Y86.084
;TYPE:WALL-INNER
G1 F1200 X177.784 Y86.084 E53.64841
G1 X177.784 Y76.726 E54.08416
G1 X175.505 Y76.726 E54.19028
G1 X175.505 Y73.565 E54.33746
G1 X169.805 Y73.565 E54.60288
G1 X169.805 Y76.725 E54.75002
G1 X167.724 Y76.725 E54.84692
G1 X167.525 Y76.725 E54.85619
G1 X167.525 Y76.924 E54.86218
G1 X167.526 Y86.084 E55.28871
G0 F6000 X167.926 Y85.684
;TYPE:WALL-OUTER
G1 F1200 X177.384 Y85.684 E55.72912
G1 X177.384 Y77.126 E56.12761
G1 X175.105 Y77.126 E56.23373
G1 X175.105 Y73.965 E56.38092
G1 X170.205 Y73.965 E56.60909
G1 X170.205 Y77.125 E56.75623
G1 X167.925 Y77.125 E56.8624
G1 X167.926 Y85.684 E57.26094
G0 F6000 X167.926 Y86.184
G0 X142.394 Y86.154
G0 X142.464 Y86.084
;TYPE:WALL-INNER
G1 F1200 X152.721 Y86.084 E57.73855
G1 X152.721 Y76.726 E58.1743
G1 X150.442 Y76.726 E58.28042
G1 X150.442 Y73.565 E58.4276
G1 X144.742 Y73.565 E58.69302
G1 X144.742 Y76.725 E58.84016
G1 X142.662 Y76.725 E58.93702
G1 X142.463 Y76.725 E58.94628
G1 X142.463 Y76.924 E58.95228
G1 X142.464 Y86.084 E59.37881
G0 F6000 X142.864 Y85.684
;TYPE:WALL-OUTER
G1 F1200 X152.321 Y85.684 E59.81916
G1 X152.321 Y77.126 E60.21766
G1 X150.042 Y77.126 E60.32378
G1 X150.042 Y73.965 E60.47097
G1 X145.142 Y73.965 E60.69913
G1 X145.142 Y77.125 E60.84628
G1 X142.863 Y77.125 E60.9524
G1 X142.864 Y85.684 E61.35094
G0 F6000 X142.864 Y86.184
G0 X117.331 Y86.154
G0 X117.401 Y86.084
;TYPE:WALL-INNER
G1 F1200 X127.659 Y86.084 E61.8286
G1 X127.659 Y76.726 E62.26434
G1 X125.38 Y76.726 E62.37046
G1 X125.38 Y73.565 E62.51765
G1 X119.68 Y73.565 E62.78307
G1 X119.68 Y76.725 E62.93021
G1 X117.599 Y76.725 E63.02711
G1 X117.4 Y76.725 E63.03638
G1 X117.4 Y76.924 E63.04237
G1 X117.401 Y86.084 E63.4689
G0 F6000 X117.801 Y85.684
;TYPE:WALL-OUTER
G1 F1200 X127.259 Y85.684 E63.9093
G1 X127.259 Y77.126 E64.3078
G1 X124.98 Y77.126 E64.41392
G1 X124.98 Y73.965 E64.56111
G1 X120.08 Y73.965 E64.78927
G1 X120.08 Y77.125 E64.93642
G1 X117.8 Y77.125 E65.04258
G1 X117.801 Y85.684 E65.44113
G0 F6000 X117.801 Y86.184
G0 X102.666 Y86.154
G0 X102.596 Y86.084
;TYPE:WALL-INNER
G1 F1200 X102.596 Y76.726 E65.87687
G1 X100.317 Y76.726 E65.98299
G1 X100.317 Y73.565 E66.13018
G1 X94.617 Y73.565 E66.3956
G1 X94.617 Y76.725 E66.54274
G1 X92.537 Y76.725 E66.6396
G1 X92.338 Y76.725 E66.64886
G1 X92.338 Y76.924 E66.65486
G1 X92.339 Y86.084 E67.08139
G1 X102.596 Y86.084 E67.55899
G0 F6000 X102.196 Y85.684
;TYPE:WALL-OUTER
G1 F1200 X102.196 Y77.126 E67.95749
G1 X99.917 Y77.126 E68.06361
G1 X99.917 Y73.965 E68.2108
G1 X95.017 Y73.965 E68.43896
G1 X95.017 Y77.125 E68.58611
G1 X92.738 Y77.125 E68.69223
G1 X92.739 Y85.684 E69.09077
G1 X102.196 Y85.684 E69.53113
G0 F6000 X102.696 Y85.684
G0 X102.666 Y61.092
G0 X102.596 Y61.022
;TYPE:WALL-INNER
G1 F1200 X102.596 Y51.664 E69.96687
G1 X100.317 Y51.664 E70.07299
G1 X100.317 Y48.503 E70.22018
G1 X94.617 Y48.503 E70.4856
G1 X94.617 Y51.663 E70.63274
G1 X92.537 Y51.663 E70.7296
G1 X92.338 Y51.663 E70.73886
G1 X92.338 Y51.862 E70.74486
G1 X92.339 Y61.022 E71.17139
G1 X102.596 Y61.022 E71.64899
G0 F6000 X102.196 Y60.622
;TYPE:WALL-OUTER
G1 F1200 X102.196 Y52.064 E72.04749
G1 X99.917 Y52.064 E72.15361
G1 X99.917 Y48.903 E72.3008
G1 X95.017 Y48.903 E72.52896
G1 X95.017 Y52.063 E72.67611
G1 X92.738 Y52.063 E72.78223
G1 X92.739 Y60.622 E73.18077
G1 X102.196 Y60.622 E73.62113
G0 F6000 X102.696 Y60.622
G0 X117.331 Y61.092
G0 X117.401 Y61.022
;TYPE:WALL-INNER
G1 F1200 X127.659 Y61.022 E74.09878
G1 X127.659 Y51.664 E74.53453
G1 X125.38 Y51.664 E74.64065
G1 X125.38 Y48.503 E74.78784
G1 X119.68 Y48.503 E75.05326
G1 X119.68 Y51.663 E75.2004
G1 X117.599 Y51.663 E75.2973
G1 X117.4 Y51.663 E75.30657
G1 X117.4 Y51.862 E75.31256
G1 X117.401 Y61.022 E75.73909
G0 F6000 X117.801 Y60.622
;TYPE:WALL-OUTER
G1 F1200 X127.259 Y60.622 E76.17949
G1 X127.259 Y52.064 E76.57799
G1 X124.98 Y52.064 E76.68411
G1 X124.98 Y48.903 E76.8313
G1 X120.08 Y48.903 E77.05946
G1 X120.08 Y52.063 E77.20661
G1 X117.8 Y52.063 E77.31277
G1 X117.801 Y60.622 E77.71131
G0 F6000 X117.801 Y61.122
G0 X117.373 Y61.05
G0 X117.331 Y36.029
G0 X117.401 Y35.959
;TYPE:WALL-INNER
G1 F1200 X127.659 Y35.959 E78.18897
G1 X127.659 Y26.601 E78.62472
G1 X125.38 Y26.601 E78.73084
G1 X125.38 Y23.44 E78.87803
G1 X119.68 Y23.44 E79.14344
G1 X119.68 Y26.6 E79.29059
G1 X117.599 Y26.6 E79.38749
G1 X117.4 Y26.6 E79.39675
G1 X117.4 Y26.799 E79.40275
G1 X117.401 Y35.959 E79.82928
G0 F6000 X117.801 Y35.559
;TYPE:WALL-OUTER
G1 F1200 X127.259 Y35.559 E80.26968
G1 X127.259 Y27.001 E80.66818
G1 X124.98 Y27.001 E80.7743
G1 X124.98 Y23.84 E80.92148
G1 X120.08 Y23.84 E81.14965
G1 X120.08 Y27 E81.29679
G1 X117.8 Y27 E81.40296
G1 X117.801 Y35.559 E81.8015
G0 F6000 X117.801 Y36.059
G0 X102.666 Y36.029
G0 X102.596 Y35.959
;TYPE:WALL-INNER
G1 F1200 X102.596 Y26.601 E82.23725
G1 X100.317 Y26.601 E82.34337
G1 X100.317 Y23.44 E82.49056
G1 X94.617 Y23.44 E82.75597
G1 X94.617 Y26.6 E82.90312
G1 X92.537 Y26.6 E82.99997
G1 X92.338 Y26.6 E83.00924
G1 X92.338 Y26.799 E83.01523
G1 X92.339 Y35.959 E83.44176
G1 X102.596 Y35.959 E83.91937
G0 F6000 X102.196 Y35.559
;TYPE:WALL-OUTER
G1 F1200 X102.196 Y27.001 E84.31787
G1 X99.917 Y27.001 E84.42398
G1 X99.917 Y23.84 E84.57117
G1 X95.017 Y23.84 E84.79934
G1 X95.017 Y27 E84.94648
G1 X92.738 Y27 E85.0526
G1 X92.739 Y35.559 E85.45114
G1 X102.196 Y35.559 E85.8915
G0 F6000 X102.696 Y35.559
G0 X102.624 Y35.987
G0 X77.604 Y36.029
G0 X77.534 Y35.959
;TYPE:WALL-INNER
G1 F1200 X77.534 Y26.601 E86.32725
G1 X75.255 Y26.601 E86.43337
G1 X75.255 Y23.44 E86.58056
G1 X69.555 Y23.44 E86.84597
G1 X69.555 Y26.6 E86.99312
G1 X67.474 Y26.6 E87.09002
G1 X67.275 Y26.6 E87.09928
G1 X67.275 Y26.799 E87.10528
G1 X67.276 Y35.959 E87.53181
G1 X77.534 Y35.959 E88.00946
G0 F6000 X77.134 Y35.559
;TYPE:WALL-OUTER
G1 F1200 X77.134 Y27.001 E88.40796
G1 X74.855 Y27.001 E88.51408
G1 X74.855 Y23.84 E88.66127
G1 X69.955 Y23.84 E88.88943
G1 X69.955 Y27 E89.03658
G1 X67.675 Y27 E89.14274
G1 X67.676 Y35.559 E89.54128
G1 X77.134 Y35.559 E89.98169
G0 F6000 X77.634 Y35.559
G0 X77.562 Y35.987
G0 X52.541 Y36.029
G0 X52.471 Y35.959
;TYPE:WALL-INNER
G1 F1200 X52.471 Y26.601 E90.41744
G1 X50.193 Y26.601 E90.52351
G1 X50.193 Y23.44 E90.6707
G1 X44.492 Y23.44 E90.93616
G1 X44.492 Y26.6 E91.0833
G1 X42.412 Y26.6 E91.18016
