;FLAVOR:Marlin
;TIME:631
;Filament used: 0.25776m
;Layer height: 0.28
;MINX:20.781
;MINY:30.231
;MINZ:0.28
;MAXX:199.219
;MAXY:207.769
;MAXZ:1.32
;Generated with Cura_SteamEngine 4.11.0
M140 S60
M105
M190 S60
M104 S200
M105
M109 S200
M82 ;absolute extrusion mode
; Ender 3 Custom Start G-code
G92 E0 ; Reset Extruder
(G28 ; Home all axes)(Commented Out Due to Composite)
G1 Z2.0 F3000 ; Move Z Axis up little to prevent scratching of Heat Bed
G1 X0.1 Y20 Z0.3 F5000.0 ; Move to start position
G1 X0.1 Y200.0 Z0.3 F1500.0 E15 ; Draw the first line
G1 X0.4 Y200.0 Z0.3 F5000.0 ; Move to side a little
G1 X0.4 Y20 Z0.3 F1500.0 E30 ; Draw the second line
G92 E0 ; Reset Extruder
G1 Z2.0 F3000 ; Move Z Axis up little to prevent scratching of Heat Bed
G1 X5 Y20 Z0.3 F5000.0 ; Move over to prevent blob squish
G92 E0
G92 E0
G1 F1500 E-6.5
;LAYER_COUNT:4
;LAYER:0
M107
G1 F300 Z0.48
;MESH:FullScaleChessBoardCOMP2Nibs.STL
G0 F6000 X98.569 Y207.369 Z0.48
;TYPE:WALL-INNER
G1 F300 Z0.28
G1 F1500 E0
G1 F1200 X96.369 Y207.369 E0.10244
G1 X96.369 Y206.069 E0.16297
G1 X98.569 Y206.069 E0.26542
G1 X98.569 Y207.369 E0.32595
G0 F6000 X98.969 Y207.769
;TYPE:WALL-OUTER
G1 F1200 X95.969 Y207.769 E0.46564
G1 X95.969 Y205.669 E0.56343
G1 X98.969 Y205.669 E0.70312
G1 X98.969 Y207.769 E0.8009
G0 F6000 X98.499 Y207.299
G0 X98.179 Y206.979
;TYPE:SKIN
G1 F1200 X96.759 Y206.979 E0.86703
G1 X96.759 Y206.459 E0.89124
G1 X98.179 Y206.459 E0.95736
G1 X98.179 Y206.979 E0.98157
G0 F6000 X97.641 Y206.818
G1 F1200 X97.44 Y206.618 E0.99478
G0 F6000 X97.075 Y206.818
G1 F1200 X96.918 Y206.661 E1.00512
G1 F1500 E-5.49488
G1 F300 Z0.48
G0 F6000 X96.918 Y206.661 Z0.48
G0 X121.431 Y207.369
;TYPE:WALL-INNER
G1 F300 Z0.28
G1 F1500 E1.00512
G1 F1200 X121.431 Y206.069 E1.06565
G1 X123.631 Y206.069 E1.16809
G1 X123.631 Y207.369 E1.22862
G1 X121.431 Y207.369 E1.33106
G0 F6000 X121.031 Y207.769
;TYPE:WALL-OUTER
G1 F1200 X121.031 Y205.669 E1.42885
G1 X124.031 Y205.669 E1.56854
G1 X124.031 Y207.769 E1.66633
G1 X121.031 Y207.769 E1.80602
G0 F6000 X121.501 Y207.299
G0 X121.821 Y206.979
;TYPE:SKIN
G1 F1200 X121.821 Y206.459 E1.83023
G1 X123.241 Y206.459 E1.89635
G1 X123.241 Y206.979 E1.92057
G1 X121.821 Y206.979 E1.98669
G0 F6000 X122.331 Y206.618
G1 F1200 X122.53 Y206.818 E1.99983
G0 F6000 X122.897 Y206.618
G1 F1200 X123.081 Y206.802 E2.01194
G1 F1500 E-4.48806
G1 F300 Z0.48
G0 F6000 X123.081 Y206.802 Z0.48
G0 X146.494 Y207.369
;TYPE:WALL-INNER
G1 F300 Z0.28
G1 F1500 E2.01194
G1 F1200 X146.494 Y206.069 E2.07248
G1 X148.694 Y206.069 E2.17492
G1 X148.694 Y207.369 E2.23545
G1 X146.494 Y207.369 E2.33789
G0 F6000 X146.094 Y207.769
;TYPE:WALL-OUTER
G1 F1200 X146.094 Y205.669 E2.43568
G1 X149.094 Y205.669 E2.57537
G1 X149.094 Y207.769 E2.67315
G1 X146.094 Y207.769 E2.81285
G0 F6000 X146.564 Y207.299
G0 X146.884 Y206.979
;TYPE:SKIN
G1 F1200 X146.884 Y206.459 E2.83706
G1 X148.304 Y206.459 E2.90318
G1 X148.304 Y206.979 E2.92739
G1 X146.884 Y206.979 E2.99352
G0 F6000 X147.221 Y206.618
G1 F1200 X147.421 Y206.818 E3.00669
G0 F6000 X147.787 Y206.618
G1 F1200 X147.986 Y206.818 E3.01982
G1 F1500 E-3.48018
G1 F300 Z0.48
G0 F6000 X147.986 Y206.818 Z0.48
G0 X171.556 Y207.369
;TYPE:WALL-INNER
G1 F300 Z0.28
G1 F1500 E3.01982
G1 F1200 X171.556 Y206.069 E3.08036
G1 X173.756 Y206.069 E3.1828
G1 X173.756 Y207.369 E3.24333
G1 X171.556 Y207.369 E3.34577
G0 F6000 X171.156 Y207.769
;TYPE:WALL-OUTER
G1 F1200 X171.156 Y205.669 E3.44356
G1 X174.156 Y205.669 E3.58325
G1 X174.156 Y207.769 E3.68103
G1 X171.156 Y207.769 E3.82073
G0 F6000 X171.626 Y207.299
G0 X171.946 Y206.979
;TYPE:SKIN
G1 F1200 X171.946 Y206.459 E3.84494
G1 X173.366 Y206.459 E3.91106
G1 X173.366 Y206.979 E3.93528
G1 X171.946 Y206.979 E4.0014
G0 F6000 X172.111 Y206.618
G1 F1200 X172.311 Y206.818 E4.01457
G0 F6000 X172.677 Y206.618
G1 F1200 X172.877 Y206.818 E4.02774
G1 F1500 E-2.47226
G1 F300 Z0.48
G0 F6000 X172.877 Y206.818 Z0.48
G0 X196.619 Y207.369
;TYPE:WALL-INNER
G1 F300 Z0.28
G1 F1500 E4.02774
G1 F1200 X196.619 Y206.069 E4.08827
G1 X198.819 Y206.069 E4.19071
G1 X198.819 Y207.369 E4.25125
G1 X196.619 Y207.369 E4.35369
G0 F6000 X196.219 Y207.769
;TYPE:WALL-OUTER
G1 F1200 X196.219 Y205.669 E4.45147
G1 X199.219 Y205.669 E4.59116
G1 X199.219 Y207.769 E4.68895
G1 X196.219 Y207.769 E4.82864
G0 F6000 X196.689 Y207.299
G0 X197.009 Y206.979
;TYPE:SKIN
G1 F1200 X197.009 Y206.459 E4.85285
G1 X198.429 Y206.459 E4.91898
G1 X198.429 Y206.979 E4.94319
G1 X197.009 Y206.979 E5.00931
G0 F6000 X197.567 Y206.618
G1 F1200 X197.767 Y206.818 E5.02248
G0 F6000 X198.133 Y206.618
G1 F1200 X198.269 Y206.754 E5.03144
G1 F1500 E-1.46856
G1 F300 Z0.48
G0 F6000 X198.269 Y206.754 Z0.48
G0 X196.619 Y182.306
;TYPE:WALL-INNER
G1 F300 Z0.28
G1 F1500 E5.03144
G1 F1200 X196.619 Y181.006 E5.09197
G1 X198.819 Y181.006 E5.19441
G1 X198.819 Y182.306 E5.25494
G1 X196.619 Y182.306 E5.35739
G0 F6000 X196.219 Y182.706
;TYPE:WALL-OUTER
G1 F1200 X196.219 Y180.606 E5.45517
G1 X199.219 Y180.606 E5.59486
G1 X199.219 Y182.706 E5.69265
G1 X196.219 Y182.706 E5.83234
G0 F6000 X196.689 Y182.236
G0 X197.009 Y181.916
;TYPE:SKIN
G1 F1200 X197.009 Y181.396 E5.85655
G1 X198.429 Y181.396 E5.92267
G1 X198.429 Y181.916 E5.94689
G1 X197.009 Y181.916 E6.01301
G0 F6000 X197.395 Y181.556
G1 F1200 X197.595 Y181.756 E6.02618
G0 F6000 X197.96 Y181.556
G1 F1200 X198.161 Y181.756 E6.03938
G1 F1500 E-0.46062
G1 F300 Z0.48
G0 F6000 X198.161 Y181.756 Z0.48
G0 X196.619 Y157.244
;TYPE:WALL-INNER
G1 F300 Z0.28
G1 F1500 E6.03938
G1 F1200 X196.619 Y155.944 E6.09992
G1 X198.819 Y155.944 E6.20236
G1 X198.819 Y157.244 E6.26289
G1 X196.619 Y157.244 E6.36533
G0 F6000 X196.219 Y157.644
;TYPE:WALL-OUTER
G1 F1200 X196.219 Y155.544 E6.46312
G1 X199.219 Y155.544 E6.60281
G1 X199.219 Y157.644 E6.70059
G1 X196.219 Y157.644 E6.84029
G0 F6000 X196.689 Y157.174
G0 X197.009 Y156.854
;TYPE:SKIN
G1 F1200 X197.009 Y156.334 E6.8645
G1 X198.429 Y156.334 E6.93062
G1 X198.429 Y156.854 E6.95484
G1 X197.009 Y156.854 E7.02096
G0 F6000 X197.223 Y156.494
G1 F1200 X197.422 Y156.693 E7.03406
G0 F6000 X197.789 Y156.494
G1 F1200 X197.988 Y156.693 E7.04717
G1 F1500 E0.54717
G1 F300 Z0.48
G0 F6000 X197.988 Y156.693 Z0.48
G0 X171.556 Y157.244
;TYPE:WALL-INNER
G1 F300 Z0.28
G1 F1500 E7.04717
G1 F1200 X171.556 Y155.944 E7.1077
G1 X173.756 Y155.944 E7.21014
G1 X173.756 Y157.244 E7.27067
G1 X171.556 Y157.244 E7.37311
G0 F6000 X171.156 Y157.644
;TYPE:WALL-OUTER
G1 F1200 X171.156 Y155.544 E7.4709
G1 X174.156 Y155.544 E7.61059
G1 X174.156 Y157.644 E7.70838
G1 X171.156 Y157.644 E7.84807
G0 F6000 X171.626 Y157.174
G0 X171.946 Y156.854
;TYPE:SKIN
G1 F1200 X171.946 Y156.334 E7.87228
G1 X173.366 Y156.334 E7.9384
G1 X173.366 Y156.854 E7.96262
G1 X171.946 Y156.854 E8.02874
G0 F6000 X172.333 Y156.494
G1 F1200 X172.533 Y156.694 E8.04191
G0 F6000 X172.898 Y156.494
G1 F1200 X173.099 Y156.694 E8.05511
G1 F1500 E1.55511
G1 F300 Z0.48
G0 F6000 X173.099 Y156.694 Z0.48
G0 X171.556 Y182.306
;TYPE:WALL-INNER
G1 F300 Z0.28
G1 F1500 E8.05511
G1 F1200 X171.556 Y181.006 E8.11565
G1 X173.756 Y181.006 E8.21809
G1 X173.756 Y182.306 E8.27862
G1 X171.556 Y182.306 E8.38106
G0 F6000 X171.156 Y182.706
;TYPE:WALL-OUTER
G1 F1200 X171.156 Y180.606 E8.47885
G1 X174.156 Y180.606 E8.61854
G1 X174.156 Y182.706 E8.71632
G1 X171.156 Y182.706 E8.85602
G0 F6000 X171.626 Y182.236
G0 X171.946 Y181.916
;TYPE:SKIN
G1 F1200 X171.946 Y181.396 E8.88023
G1 X173.366 Y181.396 E8.94635
G1 X173.366 Y181.916 E8.97056
G1 X171.946 Y181.916 E9.03669
G0 F6000 X172.504 Y181.555
G1 F1200 X172.704 Y181.755 E9.04986
G0 F6000 X173.07 Y181.555
G1 F1200 X173.206 Y181.691 E9.05881
G1 F1500 E2.55881
G1 F300 Z0.48
G0 F6000 X173.206 Y181.691 Z0.48
G0 X146.494 Y182.306
;TYPE:WALL-INNER
G1 F300 Z0.28
G1 F1500 E9.05881
G1 F1200 X146.494 Y181.006 E9.11934
G1 X148.694 Y181.006 E9.22179
G1 X148.694 Y182.306 E9.28232
G1 X146.494 Y182.306 E9.38476
G0 F6000 X146.094 Y182.706
;TYPE:WALL-OUTER
G1 F1200 X146.094 Y180.606 E9.48255
G1 X149.094 Y180.606 E9.62224
G1 X149.094 Y182.706 E9.72002
G1 X146.094 Y182.706 E9.85972
G0 F6000 X146.564 Y182.236
G0 X146.884 Y181.916
;TYPE:SKIN
G1 F1200 X146.884 Y181.396 E9.88393
G1 X148.304 Y181.396 E9.95005
G1 X148.304 Y181.916 E9.97426
G1 X146.884 Y181.916 E10.04038
G0 F6000 X147.048 Y181.555
G1 F1200 X147.248 Y181.755 E10.05355
G0 F6000 X147.614 Y181.555
G1 F1200 X147.814 Y181.755 E10.06673
G1 F1500 E3.56673
G1 F300 Z0.48
G0 F6000 X147.814 Y181.755 Z0.48
G0 X146.494 Y157.244
;TYPE:WALL-INNER
G1 F300 Z0.28
G1 F1500 E10.06673
G1 F1200 X146.494 Y155.944 E10.12726
G1 X148.694 Y155.944 E10.2297
G1 X148.694 Y157.244 E10.29023
G1 X146.494 Y157.244 E10.39267
G0 F6000 X146.094 Y157.644
;TYPE:WALL-OUTER
G1 F1200 X146.094 Y155.544 E10.49046
G1 X149.094 Y155.544 E10.63015
G1 X149.094 Y157.644 E10.72794
G1 X146.094 Y157.644 E10.86763
G0 F6000 X146.564 Y157.174
G0 X146.884 Y156.854
;TYPE:SKIN
G1 F1200 X146.884 Y156.334 E10.89184
G1 X148.304 Y156.334 E10.95796
G1 X148.304 Y156.854 E10.98218
G1 X146.884 Y156.854 E11.0483
G0 F6000 X147.442 Y156.493
G1 F1200 X147.642 Y156.693 E11.06147
G0 F6000 X148.008 Y156.493
G1 F1200 X148.144 Y156.629 E11.07042
G1 F1500 E4.57042
G1 F300 Z0.48
G0 F6000 X148.144 Y156.629 Z0.48
G0 X121.431 Y157.244
;TYPE:WALL-INNER
G1 F300 Z0.28
G1 F1500 E11.07042
G1 F1200 X121.431 Y155.944 E11.13096
G1 X123.631 Y155.944 E11.2334
G1 X123.631 Y157.244 E11.29393
G1 X121.431 Y157.244 E11.39637
G0 F6000 X121.031 Y157.644
;TYPE:WALL-OUTER
G1 F1200 X121.031 Y155.544 E11.49416
G1 X124.031 Y155.544 E11.63385
G1 X124.031 Y157.644 E11.73164
G1 X121.031 Y157.644 E11.87133
G0 F6000 X121.501 Y157.174
G0 X121.821 Y156.854
;TYPE:SKIN
G1 F1200 X121.821 Y156.334 E11.89554
G1 X123.241 Y156.334 E11.96166
G1 X123.241 Y156.854 E11.98588
G1 X121.821 Y156.854 E12.052
G0 F6000 X121.986 Y156.493
G1 F1200 X122.185 Y156.692 E12.0651
G0 F6000 X122.552 Y156.493
G1 F1200 X122.751 Y156.692 E12.07821
G1 F1500 E5.57821
G1 F300 Z0.48
G0 F6000 X122.751 Y156.692 Z0.48
G0 X98.569 Y157.244
;TYPE:WALL-INNER
G1 F300 Z0.28
G1 F1500 E12.07821
G1 F1200 X96.369 Y157.244 E12.18065
G1 X96.369 Y155.944 E12.24118
G1 X98.569 Y155.944 E12.34362
G1 X98.569 Y157.244 E12.40416
G0 F6000 X98.969 Y157.644
;TYPE:WALL-OUTER
G1 F1200 X95.969 Y157.644 E12.54385
G1 X95.969 Y155.544 E12.64163
G1 X98.969 Y155.544 E12.78133
G1 X98.969 Y157.644 E12.87911
G0 F6000 X98.499 Y157.174
G0 X98.179 Y156.854
;TYPE:SKIN
G1 F1200 X96.759 Y156.854 E12.94523
G1 X96.759 Y156.334 E12.96944
G1 X98.179 Y156.334 E13.03557
G1 X98.179 Y156.854 E13.05978
G0 F6000 X97.862 Y156.693
G1 F1200 X97.662 Y156.493 E13.07295
G0 F6000 X97.296 Y156.693
G1 F1200 X97.096 Y156.493 E13.08612
G1 F1500 E6.58612
G1 F300 Z0.48
G0 F6000 X97.096 Y156.493 Z0.48
G0 X98.569 Y182.306
;TYPE:WALL-INNER
G1 F300 Z0.28
G1 F1500 E13.08612
G1 F1200 X96.369 Y182.306 E13.18856
G1 X96.369 Y181.006 E13.24909
G1 X98.569 Y181.006 E13.35154
G1 X98.569 Y182.306 E13.41207
G0 F6000 X98.969 Y182.706
;TYPE:WALL-OUTER
G1 F1200 X95.969 Y182.706 E13.55176
G1 X95.969 Y180.606 E13.64955
G1 X98.969 Y180.606 E13.78924
G1 X98.969 Y182.706 E13.88702
G0 F6000 X98.499 Y182.236
G0 X98.179 Y181.916
;TYPE:SKIN
G1 F1200 X96.759 Y181.916 E13.95315
G1 X96.759 Y181.396 E13.97736
G1 X98.179 Y181.396 E14.04348
G1 X98.179 Y181.916 E14.06769
G0 F6000 X98.019 Y181.74
G1 F1200 X97.833 Y181.555 E14.07991
G0 F6000 X97.467 Y181.754
G1 F1200 X97.268 Y181.555 E14.09301
G1 F1500 E7.59301
G1 F300 Z0.48
G0 F6000 X97.268 Y181.555 Z0.48
G0 X121.431 Y182.306
;TYPE:WALL-INNER
G1 F300 Z0.28
G1 F1500 E14.09301
G1 F1200 X121.431 Y181.006 E14.15355
G1 X123.631 Y181.006 E14.25599
G1 X123.631 Y182.306 E14.31652
G1 X121.431 Y182.306 E14.41896
G0 F6000 X121.031 Y182.706
;TYPE:WALL-OUTER
G1 F1200 X121.031 Y180.606 E14.51675
G1 X124.031 Y180.606 E14.65644
G1 X124.031 Y182.706 E14.75422
G1 X121.031 Y182.706 E14.89392
G0 F6000 X121.501 Y182.236
G0 X121.821 Y181.916
;TYPE:SKIN
G1 F1200 X121.821 Y181.396 E14.91813
G1 X123.241 Y181.396 E14.98425
G1 X123.241 Y181.916 E15.00847
G1 X121.821 Y181.916 E15.07459
G0 F6000 X122.158 Y181.555
G1 F1200 X122.358 Y181.755 E15.08776
G0 F6000 X122.724 Y181.555
G1 F1200 X122.924 Y181.755 E15.10093
G1 F1500 E8.60093
G1 F300 Z0.48
G0 F6000 X122.924 Y181.755 Z0.48
G0 X73.506 Y182.306
;TYPE:WALL-INNER
G1 F300 Z0.28
G1 F1500 E15.10093
G1 F1200 X71.306 Y182.306 E15.20337
G1 X71.306 Y181.006 E15.2639
G1 X73.506 Y181.006 E15.36634
G1 X73.506 Y182.306 E15.42688
G0 F6000 X73.906 Y182.706
;TYPE:WALL-OUTER
G1 F1200 X70.906 Y182.706 E15.56657
G1 X70.906 Y180.606 E15.66435
G1 X73.906 Y180.606 E15.80405
G1 X73.906 Y182.706 E15.90183
G0 F6000 X73.436 Y182.236
G0 X73.116 Y181.916
;TYPE:SKIN
G1 F1200 X71.696 Y181.916 E15.96795
G1 X71.696 Y181.396 E15.99217
G1 X73.116 Y181.396 E16.05829
G1 X73.116 Y181.916 E16.0825
G0 F6000 X72.578 Y181.755
G1 F1200 X72.378 Y181.555 E16.09567
G0 F6000 X72.012 Y181.755
G1 F1200 X71.855 Y181.598 E16.10601
G1 F1500 E9.60601
G1 F300 Z0.48
G0 F6000 X71.855 Y181.598 Z0.48
G0 X48.444 Y182.306
;TYPE:WALL-INNER
G1 F300 Z0.28
G1 F1500 E16.10601
G1 F1200 X46.244 Y182.306 E16.20845
G1 X46.244 Y181.006 E16.26898
G1 X48.444 Y181.006 E16.37143
G1 X48.444 Y182.306 E16.43196
G0 F6000 X48.844 Y182.706
;TYPE:WALL-OUTER
G1 F1200 X45.844 Y182.706 E16.57165
G1 X45.844 Y180.606 E16.66944
G1 X48.844 Y180.606 E16.80913
G1 X48.844 Y182.706 E16.90691
G0 F6000 X48.374 Y182.236
G0 X48.054 Y181.916
;TYPE:SKIN
G1 F1200 X46.634 Y181.916 E16.97303
G1 X46.634 Y181.396 E16.99725
G1 X48.054 Y181.396 E17.06337
G1 X48.054 Y181.916 E17.08758
G0 F6000 X47.687 Y181.755
G1 F1200 X47.487 Y181.555 E17.10075
G0 F6000 X47.122 Y181.755
G1 F1200 X46.922 Y181.555 E17.11392
G1 F1500 E10.61392
G1 F300 Z0.48
G0 F6000 X46.922 Y181.555 Z0.48
G0 X48.444 Y157.244
;TYPE:WALL-INNER
G1 F300 Z0.28
G1 F1500 E17.11392
G1 F1200 X46.244 Y157.244 E17.21636
G1 X46.244 Y155.944 E17.2769
G1 X48.444 Y155.944 E17.37934
G1 X48.444 Y157.244 E17.43987
G0 F6000 X48.844 Y157.644
;TYPE:WALL-OUTER
G1 F1200 X45.844 Y157.644 E17.57956
G1 X45.844 Y155.544 E17.67735
G1 X48.844 Y155.544 E17.81704
G1 X48.844 Y157.644 E17.91483
G0 F6000 X48.374 Y157.174
G0 X48.054 Y156.854
;TYPE:SKIN
G1 F1200 X46.634 Y156.854 E17.98095
G1 X46.634 Y156.334 E18.00516
G1 X48.054 Y156.334 E18.07128
G1 X48.054 Y156.854 E18.0955
G0 F6000 X47.516 Y156.693
G1 F1200 X47.316 Y156.493 E18.10867
G0 F6000 X46.95 Y156.693
G1 F1200 X46.793 Y156.536 E18.11901
G1 F1500 E11.61901
G1 F300 Z0.48
G0 F6000 X46.793 Y156.536 Z0.48
G0 X73.506 Y157.244
;TYPE:WALL-INNER
G1 F300 Z0.28
G1 F1500 E18.11901
G1 F1200 X71.306 Y157.244 E18.22145
G1 X71.306 Y155.944 E18.28198
G1 X73.506 Y155.944 E18.38442
G1 X73.506 Y157.244 E18.44495
G0 F6000 X73.906 Y157.644
;TYPE:WALL-OUTER
G1 F1200 X70.906 Y157.644 E18.58465
G1 X70.906 Y155.544 E18.68243
G1 X73.906 Y155.544 E18.82212
G1 X73.906 Y157.644 E18.91991
G0 F6000 X73.436 Y157.174
G0 X73.116 Y156.854
;TYPE:SKIN
G1 F1200 X71.696 Y156.854 E18.98603
G1 X71.696 Y156.334 E19.01024
G1 X73.116 Y156.334 E19.07636
G1 X73.116 Y156.854 E19.10058
G0 F6000 X72.956 Y156.677
G1 F1200 X72.771 Y156.493 E19.11273
G0 F6000 X72.406 Y156.693
G1 F1200 X72.206 Y156.493 E19.1259
G1 F1500 E12.6259
G1 F300 Z0.48
G0 F6000 X72.206 Y156.493 Z0.48
G0 X73.506 Y132.181
;TYPE:WALL-INNER
G1 F300 Z0.28
G1 F1500 E19.1259
G1 F1200 X71.306 Y132.181 E19.22834
G1 X71.306 Y130.881 E19.28887
G1 X73.506 Y130.881 E19.39131
G1 X73.506 Y132.181 E19.45185
G0 F6000 X73.906 Y132.581
;TYPE:WALL-OUTER
G1 F1200 X70.906 Y132.581 E19.59154
G1 X70.906 Y130.481 E19.68933
G1 X73.906 Y130.481 E19.82902
G1 X73.906 Y132.581 E19.9268
G0 F6000 X73.436 Y132.111
G0 X73.116 Y131.791
;TYPE:SKIN
G1 F1200 X71.696 Y131.791 E19.99292
G1 X71.696 Y131.271 E20.01714
G1 X73.116 Y131.271 E20.08326
G1 X73.116 Y131.791 E20.10747
G0 F6000 X72.798 Y131.63
G1 F1200 X72.599 Y131.43 E20.12061
G0 F6000 X72.233 Y131.63
G1 F1200 X72.033 Y131.43 E20.13378
G1 F1500 E13.63378
G1 F300 Z0.48
G0 F6000 X72.033 Y131.43 Z0.48
G0 X48.444 Y132.181
;TYPE:WALL-INNER
G1 F300 Z0.28
G1 F1500 E20.13378
G1 F1200 X46.244 Y132.181 E20.23622
G1 X46.244 Y130.881 E20.29675
G1 X48.444 Y130.881 E20.3992
G1 X48.444 Y132.181 E20.45973
G0 F6000 X48.844 Y132.581
;TYPE:WALL-OUTER
G1 F1200 X45.844 Y132.581 E20.59942
