;FLAVOR:Marlin
;TIME:2671
;Filament used: 1.6172m
;Layer height: 0.2
;MINX:10.2
;MINY:19.2
;MINZ:0.2
;MAXX:209.8
;MAXY:218.8
;MAXZ:0.2
;Generated with Cura_SteamEngine 4.11.0
M140 S60
M105
M190 S60
M104 S200
M105
M109 S200
M82 ;absolute extrusion mode
; Ender 3 Custom Start G-code
G92 E0 ; Reset Extruder
G28 ; Home all axes
G1 Z2.0 F3000 ; Move Z Axis up little to prevent scratching of Heat Bed
G1 X0.1 Y20 Z0.3 F5000.0 ; Move to start position
G1 X0.1 Y200.0 Z0.3 F1500.0 E15 ; Draw the first line
G1 X0.4 Y200.0 Z0.3 F5000.0 ; Move to side a little
G1 X0.4 Y20 Z0.3 F1500.0 E30 ; Draw the second line
G92 E0 ; Reset Extruder
G1 Z2.0 F3000 ; Move Z Axis up little to prevent scratching of Heat Bed
G1 X5 Y20 Z0.3 F5000.0 ; Move over to prevent blob squish
G92 E0
G92 E0
G1 F1500 E-6.5
;LAYER_COUNT:1
;LAYER:0
M107
;MESH:FullScaleChessBoardCOMP1Squares.STL
G0 F6000 X110.85 Y218.4 Z0.2
;TYPE:WALL-INNER
G1 F1500 E0
G1 F1200 X110.85 Y195.037 E0.77706
G1 X134.213 Y195.037 E1.55411
G1 X134.213 Y218.4 E2.33117
G1 X110.85 Y218.4 E3.10823
G0 F6000 X110.45 Y218.8
;TYPE:WALL-OUTER
G1 F1200 X110.45 Y194.637 E3.91189
G1 X134.613 Y194.637 E4.71556
G1 X134.613 Y218.8 E5.51922
G1 X110.45 Y218.8 E6.32288
G0 F6000 X110.92 Y218.33
G0 X111.24 Y218.01
;TYPE:SKIN
G1 F1200 X111.24 Y195.427 E7.074
G1 X133.823 Y195.427 E7.82511
G1 X133.823 Y218.01 E8.57623
G1 X111.24 Y218.01 E9.32734
G0 F6000 X111.5 Y217.848
G1 F1200 X111.399 Y217.748 E9.33207
G0 F6000 X111.399 Y217.182
G1 F1200 X112.065 Y217.848 E9.36339
G0 F6000 X112.631 Y217.848
G1 F1200 X111.399 Y216.617 E9.42132
G0 F6000 X111.399 Y216.051
G1 F1200 X113.197 Y217.848 E9.50587
G0 F6000 X113.762 Y217.848
G1 F1200 X111.399 Y215.485 E9.61702
G0 F6000 X111.399 Y214.92
G1 F1200 X114.328 Y217.848 E9.75476
G0 F6000 X114.894 Y217.848
G1 F1200 X111.399 Y214.354 E9.91913
G0 F6000 X111.399 Y213.788
G1 F1200 X115.459 Y217.848 E10.1101
G0 F6000 X116.025 Y217.848
G1 F1200 X111.399 Y213.223 E10.32767
G0 F6000 X111.399 Y212.657
G1 F1200 X116.591 Y217.848 E10.57187
G0 F6000 X117.156 Y217.848
G1 F1200 X111.399 Y212.091 E10.84266
G0 F6000 X111.399 Y211.526
G1 F1200 X117.722 Y217.848 E11.14005
G0 F6000 X118.288 Y217.848
G1 F1200 X111.399 Y210.96 E11.46406
G0 F6000 X111.399 Y210.394
G1 F1200 X118.854 Y217.848 E11.8147
G0 F6000 X119.419 Y217.848
G1 F1200 X111.399 Y209.828 E12.19194
G0 F6000 X111.399 Y209.263
G1 F1200 X119.985 Y217.848 E12.59577
G0 F6000 X120.551 Y217.848
G1 F1200 X111.399 Y208.697 E13.02623
G0 F6000 X111.399 Y208.131
G1 F1200 X121.116 Y217.848 E13.48329
G0 F6000 X121.682 Y217.848
G1 F1200 X111.399 Y207.566 E13.96694
G0 F6000 X111.399 Y207
G1 F1200 X122.248 Y217.848 E14.47723
G0 F6000 X122.813 Y217.848
G1 F1200 X111.399 Y206.434 E15.0141
G0 F6000 X111.399 Y205.869
G1 F1200 X123.379 Y217.848 E15.57758
G0 F6000 X123.945 Y217.848
G1 F1200 X111.399 Y205.303 E16.16769
G0 F6000 X111.399 Y204.737
G1 F1200 X124.51 Y217.848 E16.78439
G0 F6000 X125.076 Y217.848
G1 F1200 X111.399 Y204.172 E17.42769
G0 F6000 X111.399 Y203.606
G1 F1200 X125.642 Y217.848 E18.09761
G0 F6000 X126.207 Y217.848
G1 F1200 X111.399 Y203.04 E18.79413
G0 F6000 X111.399 Y202.475
G1 F1200 X126.773 Y217.848 E19.51726
G0 F6000 X127.339 Y217.848
G1 F1200 X111.399 Y201.909 E20.267
G0 F6000 X111.399 Y201.343
G1 F1200 X127.905 Y217.848 E21.04337
G0 F6000 X128.47 Y217.848
G1 F1200 X111.399 Y200.778 E21.84631
G0 F6000 X111.399 Y200.212
G1 F1200 X129.036 Y217.848 E22.67588
G0 F6000 X129.602 Y217.848
G1 F1200 X111.399 Y199.646 E23.53207
G0 F6000 X111.399 Y199.08
G1 F1200 X130.167 Y217.848 E24.41486
G0 F6000 X130.733 Y217.848
G1 F1200 X111.399 Y198.515 E25.32425
G0 F6000 X111.399 Y197.949
G1 F1200 X131.299 Y217.848 E26.26026
G0 F6000 X131.864 Y217.848
G1 F1200 X111.399 Y197.383 E27.22287
G0 F6000 X111.399 Y196.818
G1 F1200 X132.43 Y217.848 E28.21208
G0 F6000 X132.996 Y217.848
G1 F1200 X111.399 Y196.252 E29.22791
G0 F6000 X111.399 Y195.686
G1 F1200 X133.561 Y217.848 E30.27035
G0 F6000 X133.662 Y217.384
G1 F1200 X111.864 Y195.586 E31.29566
G0 F6000 X112.43 Y195.586
G1 F1200 X133.662 Y216.818 E32.29435
G0 F6000 X133.662 Y216.253
G1 F1200 X112.996 Y195.586 E33.26643
G0 F6000 X113.562 Y195.586
G1 F1200 X133.662 Y215.687 E34.2119
G0 F6000 X133.662 Y215.121
G1 F1200 X114.127 Y195.586 E35.13077
G0 F6000 X114.693 Y195.586
G1 F1200 X133.662 Y214.555 E36.02301
G0 F6000 X133.662 Y213.99
G1 F1200 X115.259 Y195.586 E36.88865
G0 F6000 X115.824 Y195.586
G1 F1200 X133.662 Y213.424 E37.7277
G0 F6000 X133.662 Y212.858
G1 F1200 X116.39 Y195.586 E38.54012
G0 F6000 X116.956 Y195.586
G1 F1200 X133.662 Y212.293 E39.32594
G0 F6000 X133.662 Y211.727
G1 F1200 X117.521 Y195.586 E40.08517
G0 F6000 X118.087 Y195.586
G1 F1200 X133.662 Y211.161 E40.81777
G0 F6000 X133.662 Y210.596
G1 F1200 X118.653 Y195.586 E41.52377
G0 F6000 X119.218 Y195.586
G1 F1200 X133.662 Y210.03 E42.20317
G0 F6000 X133.662 Y209.464
G1 F1200 X119.784 Y195.586 E42.85595
G0 F6000 X120.35 Y195.586
G1 F1200 X133.662 Y208.899 E43.48213
G0 F6000 X133.662 Y208.333
G1 F1200 X120.915 Y195.586 E44.08171
G0 F6000 X121.481 Y195.586
G1 F1200 X133.662 Y207.767 E44.65466
G0 F6000 X133.662 Y207.202
G1 F1200 X122.047 Y195.586 E45.20102
G0 F6000 X122.613 Y195.586
G1 F1200 X133.662 Y206.636 E45.72076
G0 F6000 X133.662 Y206.07
G1 F1200 X123.178 Y195.586 E46.21389
G0 F6000 X123.744 Y195.586
G1 F1200 X133.662 Y205.505 E46.68043
G0 F6000 X133.662 Y204.939
G1 F1200 X124.31 Y195.586 E47.12034
G0 F6000 X124.875 Y195.586
G1 F1200 X133.662 Y204.373 E47.53365
G0 F6000 X133.662 Y203.807
G1 F1200 X125.441 Y195.586 E47.92034
G0 F6000 X126.007 Y195.586
G1 F1200 X133.662 Y203.242 E48.28044
G0 F6000 X133.662 Y202.676
G1 F1200 X126.572 Y195.586 E48.61393
G0 F6000 X127.138 Y195.586
G1 F1200 X133.662 Y202.11 E48.9208
G0 F6000 X133.662 Y201.545
G1 F1200 X127.704 Y195.586 E49.20107
G0 F6000 X128.269 Y195.586
G1 F1200 X133.662 Y200.979 E49.45474
G0 F6000 X133.662 Y200.413
G1 F1200 X128.835 Y195.586 E49.68178
G0 F6000 X129.401 Y195.586
G1 F1200 X133.662 Y199.848 E49.88223
G0 F6000 X133.662 Y199.282
G1 F1200 X129.966 Y195.586 E50.05608
G0 F6000 X130.532 Y195.586
G1 F1200 X133.662 Y198.716 E50.20331
G0 F6000 X133.662 Y198.151
G1 F1200 X131.098 Y195.586 E50.32393
G0 F6000 X131.663 Y195.586
G1 F1200 X133.662 Y197.585 E50.41796
G0 F6000 X133.662 Y197.019
G1 F1200 X132.229 Y195.586 E50.48536
G0 F6000 X132.795 Y195.586
G1 F1200 X133.662 Y196.454 E50.52617
G0 F6000 X133.662 Y195.888
G1 F1200 X133.361 Y195.586 E50.54035
G1 F1500 E44.04035
G0 F6000 X110.864 Y195.051
G0 X109.136 Y193.323
G1 F1500 E50.54035
G0 F6000 X109.15 Y193.337
;TYPE:WALL-INNER
G1 F1200 X85.787 Y193.337 E51.3174
G1 X85.787 Y169.975 E52.09443
G1 X109.15 Y169.975 E52.87148
G1 X109.15 Y193.337 E53.64851
G0 F6000 X109.55 Y193.737
;TYPE:WALL-OUTER
G1 F1200 X85.387 Y193.737 E54.45217
G1 X85.387 Y169.575 E55.2558
G1 X109.55 Y169.575 E56.05947
G1 X109.55 Y193.737 E56.8631
G0 F6000 X109.08 Y193.267
G0 X108.76 Y192.947
;TYPE:SKIN
G1 F1200 X86.177 Y192.947 E57.61421
G1 X86.177 Y170.365 E58.36529
G1 X108.76 Y170.365 E59.11641
G1 X108.76 Y192.947 E59.86749
G0 F6000 X108.6 Y170.825
G1 F1200 X108.299 Y170.524 E59.88165
G0 F6000 X107.733 Y170.524
G1 F1200 X108.6 Y171.391 E59.92243
G0 F6000 X108.6 Y171.957
G1 F1200 X107.167 Y170.524 E59.98983
G0 F6000 X106.602 Y170.524
G1 F1200 X108.6 Y172.522 E60.08381
G0 F6000 X108.6 Y173.088
G1 F1200 X106.036 Y170.524 E60.20441
G0 F6000 X105.47 Y170.524
G1 F1200 X108.6 Y173.654 E60.35164
G0 F6000 X108.6 Y174.219
G1 F1200 X104.904 Y170.524 E60.52546
G0 F6000 X104.339 Y170.524
G1 F1200 X108.6 Y174.785 E60.72589
G0 F6000 X108.6 Y175.351
G1 F1200 X103.773 Y170.524 E60.95294
G0 F6000 X103.207 Y170.524
G1 F1200 X108.6 Y175.916 E61.20658
G0 F6000 X108.6 Y176.482
G1 F1200 X102.642 Y170.524 E61.48683
G0 F6000 X102.076 Y170.524
G1 F1200 X108.6 Y177.048 E61.7937
G0 F6000 X108.6 Y177.613
G1 F1200 X101.51 Y170.524 E62.12717
G0 F6000 X100.945 Y170.524
G1 F1200 X108.6 Y178.179 E62.48723
G0 F6000 X108.6 Y178.745
G1 F1200 X100.379 Y170.524 E62.87392
G0 F6000 X99.813 Y170.524
G1 F1200 X108.6 Y179.31 E63.28721
G0 F6000 X108.6 Y179.876
G1 F1200 X99.248 Y170.524 E63.7271
G0 F6000 X98.682 Y170.524
G1 F1200 X108.6 Y180.442 E64.19362
G0 F6000 X108.6 Y181.008
G1 F1200 X98.116 Y170.524 E64.68675
G0 F6000 X97.551 Y170.524
G1 F1200 X108.6 Y181.573 E65.20646
G0 F6000 X108.6 Y182.139
G1 F1200 X96.985 Y170.524 E65.7528
G0 F6000 X96.419 Y170.524
G1 F1200 X108.6 Y182.705 E66.32575
G0 F6000 X108.6 Y183.27
G1 F1200 X95.853 Y170.524 E66.92531
G0 F6000 X95.288 Y170.524
G1 F1200 X108.6 Y183.836 E67.55147
G0 F6000 X108.6 Y184.402
G1 F1200 X94.722 Y170.524 E68.20424
G0 F6000 X94.156 Y170.524
G1 F1200 X108.6 Y184.967 E68.88362
G0 F6000 X108.6 Y185.533
G1 F1200 X93.591 Y170.524 E69.5896
G0 F6000 X93.025 Y170.524
G1 F1200 X108.6 Y186.099 E70.3222
G0 F6000 X108.6 Y186.664
G1 F1200 X92.459 Y170.524 E71.0814
G0 F6000 X91.894 Y170.524
G1 F1200 X108.6 Y187.23 E71.8672
G0 F6000 X108.6 Y187.796
G1 F1200 X91.328 Y170.524 E72.67962
G0 F6000 X90.762 Y170.524
G1 F1200 X108.6 Y188.361 E73.51864
G0 F6000 X108.6 Y188.927
G1 F1200 X90.197 Y170.524 E74.38426
G0 F6000 X89.631 Y170.524
G1 F1200 X108.6 Y189.493 E75.27651
G0 F6000 X108.6 Y190.058
G1 F1200 X89.065 Y170.524 E76.19535
G0 F6000 X88.5 Y170.524
G1 F1200 X108.6 Y190.624 E77.14079
G0 F6000 X108.6 Y191.19
G1 F1200 X87.934 Y170.524 E78.11286
G0 F6000 X87.368 Y170.524
G1 F1200 X108.6 Y191.756 E79.11154
G0 F6000 X108.6 Y192.321
G1 F1200 X86.803 Y170.524 E80.13681
G0 F6000 X86.337 Y170.624
G1 F1200 X108.499 Y192.786 E81.17924
G0 F6000 X107.933 Y192.786
G1 F1200 X86.337 Y171.189 E82.19507
G0 F6000 X86.337 Y171.755
G1 F1200 X107.367 Y192.786 E83.18428
G0 F6000 X106.802 Y192.786
G1 F1200 X86.337 Y172.321 E84.1469
G0 F6000 X86.337 Y172.886
G1 F1200 X106.236 Y192.786 E85.08291
G0 F6000 X105.67 Y192.786
G1 F1200 X86.337 Y173.452 E85.9923
G0 F6000 X86.337 Y174.018
G1 F1200 X105.105 Y192.786 E86.87508
G0 F6000 X104.539 Y192.786
G1 F1200 X86.337 Y174.583 E87.73127
G0 F6000 X86.337 Y175.149
G1 F1200 X103.973 Y192.786 E88.56084
G0 F6000 X103.408 Y192.786
G1 F1200 X86.337 Y175.715 E89.36381
G0 F6000 X86.337 Y176.281
G1 F1200 X102.842 Y192.786 E90.14015
G0 F6000 X102.276 Y192.786
G1 F1200 X86.337 Y176.846 E90.8899
G0 F6000 X86.337 Y177.412
G1 F1200 X101.71 Y192.786 E91.61302
G0 F6000 X101.145 Y192.786
G1 F1200 X86.337 Y177.978 E92.30954
G0 F6000 X86.337 Y178.543
G1 F1200 X100.579 Y192.786 E92.97947
G0 F6000 X100.013 Y192.786
G1 F1200 X86.337 Y179.109 E93.62277
G0 F6000 X86.337 Y179.675
G1 F1200 X99.448 Y192.786 E94.23947
G0 F6000 X98.882 Y192.786
G1 F1200 X86.337 Y180.24 E94.82957
G0 F6000 X86.337 Y180.806
G1 F1200 X98.316 Y192.786 E95.39305
G0 F6000 X97.751 Y192.786
G1 F1200 X86.337 Y181.372 E95.92993
G0 F6000 X86.337 Y181.937
G1 F1200 X97.185 Y192.786 E96.44021
G0 F6000 X96.619 Y192.786
G1 F1200 X86.337 Y182.503 E96.92387
G0 F6000 X86.337 Y183.069
G1 F1200 X96.054 Y192.786 E97.38092
G0 F6000 X95.488 Y192.786
G1 F1200 X86.337 Y183.634 E97.81138
G0 F6000 X86.337 Y184.2
G1 F1200 X94.922 Y192.786 E98.21522
G0 F6000 X94.357 Y192.786
G1 F1200 X86.337 Y184.766 E98.59245
G0 F6000 X86.337 Y185.331
G1 F1200 X93.791 Y192.786 E98.94309
G0 F6000 X93.225 Y192.786
G1 F1200 X86.337 Y185.897 E99.26711
G0 F6000 X86.337 Y186.463
G1 F1200 X92.659 Y192.786 E99.5645
G0 F6000 X92.094 Y192.786
G1 F1200 X86.337 Y187.029 E99.83529
G0 F6000 X86.337 Y187.594
G1 F1200 X91.528 Y192.786 E100.07948
G0 F6000 X90.962 Y192.786
G1 F1200 X86.337 Y188.16 E100.29705
G0 F6000 X86.337 Y188.726
G1 F1200 X90.397 Y192.786 E100.48802
G0 F6000 X89.831 Y192.786
G1 F1200 X86.337 Y189.291 E100.65239
G0 F6000 X86.337 Y189.857
G1 F1200 X89.265 Y192.786 E100.79014
G0 F6000 X88.7 Y192.786
G1 F1200 X86.337 Y190.423 E100.90129
G0 F6000 X86.337 Y190.988
G1 F1200 X88.134 Y192.786 E100.98584
G0 F6000 X87.568 Y192.786
G1 F1200 X86.337 Y191.554 E101.04376
G0 F6000 X86.337 Y192.12
G1 F1200 X87.003 Y192.786 E101.07509
G0 F6000 X86.437 Y192.786
G1 F1200 X86.337 Y192.685 E101.07982
G1 F1500 E94.57982
G0 F6000 X109.136 Y169.989
G0 X110.864 Y168.261
G1 F1500 E101.07982
G0 F6000 X110.85 Y168.275
;TYPE:WALL-INNER
G1 F1200 X110.85 Y144.913 E101.85684
G1 X134.213 Y144.913 E102.63389
G1 X134.213 Y168.275 E103.41092
G1 X110.85 Y168.275 E104.18797
G0 F6000 X110.45 Y168.675
;TYPE:WALL-OUTER
G1 F1200 X110.45 Y144.513 E104.99161
G1 X134.613 Y144.513 E105.79527
G1 X134.613 Y168.675 E106.5989
G1 X110.45 Y168.675 E107.40257
G0 F6000 X110.92 Y168.205
G0 X111.24 Y167.885
;TYPE:SKIN
G1 F1200 X111.24 Y145.303 E108.15365
G1 X133.823 Y145.303 E108.90476
G1 X133.823 Y167.885 E109.65584
G1 X111.24 Y167.885 E110.40695
G0 F6000 X111.721 Y167.724
G1 F1200 X111.399 Y167.402 E110.4221
G0 F6000 X111.399 Y166.836
G1 F1200 X112.287 Y167.724 E110.46387
G0 F6000 X112.852 Y167.724
G1 F1200 X111.399 Y166.271 E110.53221
G0 F6000 X111.399 Y165.705
G1 F1200 X113.418 Y167.724 E110.62718
G0 F6000 X113.984 Y167.724
G1 F1200 X111.399 Y165.139 E110.74877
G0 F6000 X111.399 Y164.574
G1 F1200 X114.549 Y167.724 E110.89694
G0 F6000 X115.115 Y167.724
G1 F1200 X111.399 Y164.008 E111.07173
G0 F6000 X111.399 Y163.442
G1 F1200 X115.681 Y167.724 E111.27314
G0 F6000 X116.246 Y167.724
G1 F1200 X111.399 Y162.877 E111.50113
G0 F6000 X111.399 Y162.311
G1 F1200 X116.812 Y167.724 E111.75574
G0 F6000 X117.378 Y167.724
G1 F1200 X111.399 Y161.745 E112.03697
G0 F6000 X111.399 Y161.18
G1 F1200 X117.943 Y167.724 E112.34478
G0 F6000 X118.509 Y167.724
G1 F1200 X111.399 Y160.614 E112.67922
G0 F6000 X111.399 Y160.048
G1 F1200 X119.075 Y167.724 E113.04027
G0 F6000 X119.641 Y167.724
G1 F1200 X111.399 Y159.482 E113.42795
G0 F6000 X111.399 Y158.917
G1 F1200 X120.206 Y167.724 E113.8422
G0 F6000 X120.772 Y167.724
G1 F1200 X111.399 Y158.351 E114.28308
G0 F6000 X111.399 Y157.785
G1 F1200 X121.338 Y167.724 E114.75058
G0 F6000 X121.903 Y167.724
G1 F1200 X111.399 Y157.22 E115.24466
G0 F6000 X111.399 Y156.654
G1 F1200 X122.469 Y167.724 E115.76536
G0 F6000 X123.035 Y167.724
G1 F1200 X111.399 Y156.088 E116.31268
G0 F6000 X111.399 Y155.523
G1 F1200 X123.6 Y167.724 E116.88657
G0 F6000 X124.166 Y167.724
G1 F1200 X111.399 Y154.957 E117.4871
G0 F6000 X111.399 Y154.391
G1 F1200 X124.732 Y167.724 E118.11424
G0 F6000 X125.297 Y167.724
G1 F1200 X111.399 Y153.826 E118.76796
G0 F6000 X111.399 Y153.26
G1 F1200 X125.863 Y167.724 E119.4483
G0 F6000 X126.429 Y167.724
G1 F1200 X111.399 Y152.694 E120.15527
G0 F6000 X111.399 Y152.129
G1 F1200 X126.994 Y167.724 E120.88881
G0 F6000 X127.56 Y167.724
G1 F1200 X111.399 Y151.563 E121.64897
G0 F6000 X111.399 Y150.997
G1 F1200 X128.126 Y167.724 E122.43576
G0 F6000 X128.692 Y167.724
G1 F1200 X111.399 Y150.432 E123.24914
G0 F6000 X111.399 Y149.866
G1 F1200 X129.257 Y167.724 E124.08913
G0 F6000 X129.823 Y167.724
G1 F1200 X111.399 Y149.3 E124.95574
G0 F6000 X111.399 Y148.734
G1 F1200 X130.389 Y167.724 E125.84897
G0 F6000 X130.954 Y167.724
G1 F1200 X111.399 Y148.169 E126.76878
G0 F6000 X111.399 Y147.603
G1 F1200 X131.52 Y167.724 E127.71521
G0 F6000 X132.086 Y167.724
G1 F1200 X111.399 Y147.037 E128.68826
G0 F6000 X111.399 Y146.472
G1 F1200 X132.651 Y167.724 E129.68789
G0 F6000 X133.217 Y167.724
G1 F1200 X111.399 Y145.906 E130.71414
G0 F6000 X111.521 Y145.462
G1 F1200 X133.662 Y167.604 E131.75561
G0 F6000 X133.662 Y167.038
G1 F1200 X112.087 Y145.462 E132.77045
G0 F6000 X112.652 Y145.462
G1 F1200 X133.662 Y166.472 E133.7587
G0 F6000 X133.662 Y165.907
G1 F1200 X113.218 Y145.462 E134.72035
G0 F6000 X113.784 Y145.462
G1 F1200 X133.662 Y165.341 E135.65537
G0 F6000 X133.662 Y164.775
G1 F1200 X114.349 Y145.462 E136.56379
G0 F6000 X114.915 Y145.462
G1 F1200 X133.662 Y164.209 E137.4456
G0 F6000 X133.662 Y163.644
G1 F1200 X115.481 Y145.462 E138.3008
G0 F6000 X116.046 Y145.462
G1 F1200 X133.662 Y163.078 E139.1294
G0 F6000 X133.662 Y162.512
G1 F1200 X116.612 Y145.462 E139.93138
G0 F6000 X117.178 Y145.462
G1 F1200 X133.662 Y161.947 E140.70676
G0 F6000 X133.662 Y161.381
G1 F1200 X117.743 Y145.462 E141.45554
G0 F6000 X118.309 Y145.462
G1 F1200 X133.662 Y160.815 E142.1777
G0 F6000 X133.662 Y160.25
G1 F1200 X118.875 Y145.462 E142.87326
G0 F6000 X119.44 Y145.462
G1 F1200 X133.662 Y159.684 E143.54222
