;FLAVOR:Marlin
;TIME:940
;Filament used: 0.276172m
;Layer height: 0.2
;MINX:20.781
;MINY:30.231
;MINZ:0.2
;MAXX:199.219
;MAXY:207.769
;MAXZ:1.4
;Generated with Cura_SteamEngine 4.11.0
M140 S60
M105
M190 S60
M104 S200
M105
M109 S200
M82 ;absolute extrusion mode
; Ender 3 Custom Start G-code
G92 E0 ; Reset Extruder
G28 ; Home all axes
G1 Z2.0 F3000 ; Move Z Axis up little to prevent scratching of Heat Bed
G1 X0.1 Y20 Z0.3 F5000.0 ; Move to start position
G1 X0.1 Y200.0 Z0.3 F1500.0 E15 ; Draw the first line
G1 X0.4 Y200.0 Z0.3 F5000.0 ; Move to side a little
G1 X0.4 Y20 Z0.3 F1500.0 E30 ; Draw the second line
G92 E0 ; Reset Extruder
G1 Z2.0 F3000 ; Move Z Axis up little to prevent scratching of Heat Bed
G1 X5 Y20 Z0.3 F5000.0 ; Move over to prevent blob squish
G92 E0
G92 E0
G1 F1500 E-6.5
;LAYER_COUNT:7
;LAYER:0
M107
G1 F300 Z0.4
;MESH:FullScaleChessBoardCOMP2Nibs.STL
G0 F6000 X98.569 Y207.369 Z0.4
;TYPE:WALL-INNER
G1 F300 Z0.2
G1 F1500 E0
G1 F1200 X96.369 Y207.369 E0.07317
G1 X96.369 Y206.069 E0.11641
G1 X98.569 Y206.069 E0.18958
G1 X98.569 Y207.369 E0.23282
G0 F6000 X98.969 Y207.769
;TYPE:WALL-OUTER
G1 F1200 X95.969 Y207.769 E0.3326
G1 X95.969 Y205.669 E0.40245
G1 X98.969 Y205.669 E0.50223
G1 X98.969 Y207.769 E0.57207
G0 F6000 X98.499 Y207.299
G0 X98.179 Y206.979
;TYPE:SKIN
G1 F1200 X96.759 Y206.979 E0.6193
G1 X96.759 Y206.459 E0.6366
G1 X98.179 Y206.459 E0.68383
G1 X98.179 Y206.979 E0.70112
G0 F6000 X97.641 Y206.818
G1 F1200 X97.44 Y206.618 E0.71055
G0 F6000 X97.075 Y206.818
G1 F1200 X96.918 Y206.661 E0.71794
G1 F1500 E-5.78206
G1 F300 Z0.4
G0 F6000 X96.918 Y206.661 Z0.4
G0 X121.431 Y207.369
;TYPE:WALL-INNER
G1 F300 Z0.2
G1 F1500 E0.71794
G1 F1200 X121.431 Y206.069 E0.76118
G1 X123.631 Y206.069 E0.83435
G1 X123.631 Y207.369 E0.87759
G1 X121.431 Y207.369 E0.95076
G0 F6000 X121.031 Y207.769
;TYPE:WALL-OUTER
G1 F1200 X121.031 Y205.669 E1.02061
G1 X124.031 Y205.669 E1.12039
G1 X124.031 Y207.769 E1.19023
G1 X121.031 Y207.769 E1.29001
G0 F6000 X121.501 Y207.299
G0 X121.821 Y206.979
;TYPE:SKIN
G1 F1200 X121.821 Y206.459 E1.30731
G1 X123.241 Y206.459 E1.35454
G1 X123.241 Y206.979 E1.37183
G1 X121.821 Y206.979 E1.41906
G0 F6000 X122.331 Y206.618
G1 F1200 X122.53 Y206.818 E1.42845
G0 F6000 X122.897 Y206.618
G1 F1200 X123.081 Y206.802 E1.4371
G1 F1500 E-5.0629
G1 F300 Z0.4
G0 F6000 X123.081 Y206.802 Z0.4
G0 X146.494 Y207.369
;TYPE:WALL-INNER
G1 F300 Z0.2
G1 F1500 E1.4371
G1 F1200 X146.494 Y206.069 E1.48034
G1 X148.694 Y206.069 E1.55351
G1 X148.694 Y207.369 E1.59675
G1 X146.494 Y207.369 E1.66992
G0 F6000 X146.094 Y207.769
;TYPE:WALL-OUTER
G1 F1200 X146.094 Y205.669 E1.73977
G1 X149.094 Y205.669 E1.83955
G1 X149.094 Y207.769 E1.9094
G1 X146.094 Y207.769 E2.00918
G0 F6000 X146.564 Y207.299
G0 X146.884 Y206.979
;TYPE:SKIN
G1 F1200 X146.884 Y206.459 E2.02647
G1 X148.304 Y206.459 E2.0737
G1 X148.304 Y206.979 E2.091
G1 X146.884 Y206.979 E2.13823
G0 F6000 X147.221 Y206.618
G1 F1200 X147.421 Y206.818 E2.14763
G0 F6000 X147.787 Y206.618
G1 F1200 X147.986 Y206.818 E2.15702
G1 F1500 E-4.34298
G1 F300 Z0.4
G0 F6000 X147.986 Y206.818 Z0.4
G0 X171.556 Y207.369
;TYPE:WALL-INNER
G1 F300 Z0.2
G1 F1500 E2.15702
G1 F1200 X171.556 Y206.069 E2.20025
G1 X173.756 Y206.069 E2.27343
G1 X173.756 Y207.369 E2.31667
G1 X171.556 Y207.369 E2.38984
G0 F6000 X171.156 Y207.769
;TYPE:WALL-OUTER
G1 F1200 X171.156 Y205.669 E2.45968
G1 X174.156 Y205.669 E2.55946
G1 X174.156 Y207.769 E2.62931
G1 X171.156 Y207.769 E2.72909
G0 F6000 X171.626 Y207.299
G0 X171.946 Y206.979
;TYPE:SKIN
G1 F1200 X171.946 Y206.459 E2.74639
G1 X173.366 Y206.459 E2.79362
G1 X173.366 Y206.979 E2.81091
G1 X171.946 Y206.979 E2.85814
G0 F6000 X172.111 Y206.618
G1 F1200 X172.311 Y206.818 E2.86755
G0 F6000 X172.677 Y206.618
G1 F1200 X172.877 Y206.818 E2.87696
G1 F1500 E-3.62304
G1 F300 Z0.4
G0 F6000 X172.877 Y206.818 Z0.4
G0 X196.619 Y207.369
;TYPE:WALL-INNER
G1 F300 Z0.2
G1 F1500 E2.87696
G1 F1200 X196.619 Y206.069 E2.92019
G1 X198.819 Y206.069 E2.99337
G1 X198.819 Y207.369 E3.0366
G1 X196.619 Y207.369 E3.10978
G0 F6000 X196.219 Y207.769
;TYPE:WALL-OUTER
G1 F1200 X196.219 Y205.669 E3.17962
G1 X199.219 Y205.669 E3.2794
G1 X199.219 Y207.769 E3.34925
G1 X196.219 Y207.769 E3.44903
G0 F6000 X196.689 Y207.299
G0 X197.009 Y206.979
;TYPE:SKIN
G1 F1200 X197.009 Y206.459 E3.46632
G1 X198.429 Y206.459 E3.51355
G1 X198.429 Y206.979 E3.53085
G1 X197.009 Y206.979 E3.57808
G0 F6000 X197.567 Y206.618
G1 F1200 X197.767 Y206.818 E3.58749
G0 F6000 X198.133 Y206.618
G1 F1200 X198.269 Y206.754 E3.59388
G1 F1500 E-2.90612
G1 F300 Z0.4
G0 F6000 X198.269 Y206.754 Z0.4
G0 X196.619 Y182.306
;TYPE:WALL-INNER
G1 F300 Z0.2
G1 F1500 E3.59388
G1 F1200 X196.619 Y181.006 E3.63712
G1 X198.819 Y181.006 E3.71029
G1 X198.819 Y182.306 E3.75353
G1 X196.619 Y182.306 E3.8267
G0 F6000 X196.219 Y182.706
;TYPE:WALL-OUTER
G1 F1200 X196.219 Y180.606 E3.89655
G1 X199.219 Y180.606 E3.99633
G1 X199.219 Y182.706 E4.06618
G1 X196.219 Y182.706 E4.16596
G0 F6000 X196.689 Y182.236
G0 X197.009 Y181.916
;TYPE:SKIN
G1 F1200 X197.009 Y181.396 E4.18325
G1 X198.429 Y181.396 E4.23048
G1 X198.429 Y181.916 E4.24778
G1 X197.009 Y181.916 E4.29501
G0 F6000 X197.395 Y181.556
G1 F1200 X197.595 Y181.756 E4.30441
G0 F6000 X197.96 Y181.556
G1 F1200 X198.161 Y181.756 E4.31385
G1 F1500 E-2.18615
G1 F300 Z0.4
G0 F6000 X198.161 Y181.756 Z0.4
G0 X196.619 Y157.244
;TYPE:WALL-INNER
G1 F300 Z0.2
G1 F1500 E4.31385
G1 F1200 X196.619 Y155.944 E4.35708
G1 X198.819 Y155.944 E4.43026
G1 X198.819 Y157.244 E4.47349
G1 X196.619 Y157.244 E4.54667
G0 F6000 X196.219 Y157.644
;TYPE:WALL-OUTER
G1 F1200 X196.219 Y155.544 E4.61651
G1 X199.219 Y155.544 E4.71629
G1 X199.219 Y157.644 E4.78614
G1 X196.219 Y157.644 E4.88592
G0 F6000 X196.689 Y157.174
G0 X197.009 Y156.854
;TYPE:SKIN
G1 F1200 X197.009 Y156.334 E4.90321
G1 X198.429 Y156.334 E4.95044
G1 X198.429 Y156.854 E4.96774
G1 X197.009 Y156.854 E5.01497
G0 F6000 X197.223 Y156.494
G1 F1200 X197.422 Y156.693 E5.02433
G0 F6000 X197.789 Y156.494
G1 F1200 X197.988 Y156.693 E5.03369
G1 F1500 E-1.46631
G1 F300 Z0.4
G0 F6000 X197.988 Y156.693 Z0.4
G0 X171.556 Y157.244
;TYPE:WALL-INNER
G1 F300 Z0.2
G1 F1500 E5.03369
G1 F1200 X171.556 Y155.944 E5.07693
G1 X173.756 Y155.944 E5.1501
G1 X173.756 Y157.244 E5.19334
G1 X171.556 Y157.244 E5.26651
G0 F6000 X171.156 Y157.644
;TYPE:WALL-OUTER
G1 F1200 X171.156 Y155.544 E5.33636
G1 X174.156 Y155.544 E5.43614
G1 X174.156 Y157.644 E5.50598
G1 X171.156 Y157.644 E5.60576
G0 F6000 X171.626 Y157.174
G0 X171.946 Y156.854
;TYPE:SKIN
G1 F1200 X171.946 Y156.334 E5.62306
G1 X173.366 Y156.334 E5.67029
G1 X173.366 Y156.854 E5.68758
G1 X171.946 Y156.854 E5.73481
G0 F6000 X172.333 Y156.494
G1 F1200 X172.533 Y156.694 E5.74422
G0 F6000 X172.898 Y156.494
G1 F1200 X173.099 Y156.694 E5.75365
G1 F1500 E-0.74635
G1 F300 Z0.4
G0 F6000 X173.099 Y156.694 Z0.4
G0 X171.556 Y182.306
;TYPE:WALL-INNER
G1 F300 Z0.2
G1 F1500 E5.75365
G1 F1200 X171.556 Y181.006 E5.79689
G1 X173.756 Y181.006 E5.87006
G1 X173.756 Y182.306 E5.9133
G1 X171.556 Y182.306 E5.98647
G0 F6000 X171.156 Y182.706
;TYPE:WALL-OUTER
G1 F1200 X171.156 Y180.606 E6.05632
G1 X174.156 Y180.606 E6.1561
G1 X174.156 Y182.706 E6.22595
G1 X171.156 Y182.706 E6.32573
G0 F6000 X171.626 Y182.236
G0 X171.946 Y181.916
;TYPE:SKIN
G1 F1200 X171.946 Y181.396 E6.34302
G1 X173.366 Y181.396 E6.39025
G1 X173.366 Y181.916 E6.40755
G1 X171.946 Y181.916 E6.45478
G0 F6000 X172.504 Y181.555
G1 F1200 X172.704 Y181.755 E6.46418
G0 F6000 X173.07 Y181.555
G1 F1200 X173.206 Y181.691 E6.47058
G1 F1500 E-0.02942
G1 F300 Z0.4
G0 F6000 X173.206 Y181.691 Z0.4
G0 X146.494 Y182.306
;TYPE:WALL-INNER
G1 F300 Z0.2
G1 F1500 E6.47058
G1 F1200 X146.494 Y181.006 E6.51382
G1 X148.694 Y181.006 E6.58699
G1 X148.694 Y182.306 E6.63023
G1 X146.494 Y182.306 E6.7034
G0 F6000 X146.094 Y182.706
;TYPE:WALL-OUTER
G1 F1200 X146.094 Y180.606 E6.77325
G1 X149.094 Y180.606 E6.87303
G1 X149.094 Y182.706 E6.94287
G1 X146.094 Y182.706 E7.04265
G0 F6000 X146.564 Y182.236
G0 X146.884 Y181.916
;TYPE:SKIN
G1 F1200 X146.884 Y181.396 E7.05995
G1 X148.304 Y181.396 E7.10718
G1 X148.304 Y181.916 E7.12447
G1 X146.884 Y181.916 E7.1717
G0 F6000 X147.048 Y181.555
G1 F1200 X147.248 Y181.755 E7.18111
G0 F6000 X147.614 Y181.555
G1 F1200 X147.814 Y181.755 E7.19052
G1 F1500 E0.69052
G1 F300 Z0.4
G0 F6000 X147.814 Y181.755 Z0.4
G0 X146.494 Y157.244
;TYPE:WALL-INNER
G1 F300 Z0.2
G1 F1500 E7.19052
G1 F1200 X146.494 Y155.944 E7.23376
G1 X148.694 Y155.944 E7.30693
G1 X148.694 Y157.244 E7.35017
G1 X146.494 Y157.244 E7.42334
G0 F6000 X146.094 Y157.644
;TYPE:WALL-OUTER
G1 F1200 X146.094 Y155.544 E7.49319
G1 X149.094 Y155.544 E7.59297
G1 X149.094 Y157.644 E7.66281
G1 X146.094 Y157.644 E7.76259
G0 F6000 X146.564 Y157.174
G0 X146.884 Y156.854
;TYPE:SKIN
G1 F1200 X146.884 Y156.334 E7.77989
G1 X148.304 Y156.334 E7.82712
G1 X148.304 Y156.854 E7.84441
G1 X146.884 Y156.854 E7.89164
G0 F6000 X147.442 Y156.493
G1 F1200 X147.642 Y156.693 E7.90105
G0 F6000 X148.008 Y156.493
G1 F1200 X148.144 Y156.629 E7.90745
G1 F1500 E1.40745
G1 F300 Z0.4
G0 F6000 X148.144 Y156.629 Z0.4
G0 X121.431 Y157.244
;TYPE:WALL-INNER
G1 F300 Z0.2
G1 F1500 E7.90745
G1 F1200 X121.431 Y155.944 E7.95068
G1 X123.631 Y155.944 E8.02386
G1 X123.631 Y157.244 E8.06709
G1 X121.431 Y157.244 E8.14027
G0 F6000 X121.031 Y157.644
;TYPE:WALL-OUTER
G1 F1200 X121.031 Y155.544 E8.21011
G1 X124.031 Y155.544 E8.30989
G1 X124.031 Y157.644 E8.37974
G1 X121.031 Y157.644 E8.47952
G0 F6000 X121.501 Y157.174
G0 X121.821 Y156.854
;TYPE:SKIN
G1 F1200 X121.821 Y156.334 E8.49682
G1 X123.241 Y156.334 E8.54404
G1 X123.241 Y156.854 E8.56134
G1 X121.821 Y156.854 E8.60857
G0 F6000 X121.986 Y156.493
G1 F1200 X122.185 Y156.692 E8.61793
G0 F6000 X122.552 Y156.493
G1 F1200 X122.751 Y156.692 E8.62729
G1 F1500 E2.12729
G1 F300 Z0.4
G0 F6000 X122.751 Y156.692 Z0.4
G0 X98.569 Y157.244
;TYPE:WALL-INNER
G1 F300 Z0.2
G1 F1500 E8.62729
G1 F1200 X96.369 Y157.244 E8.70046
G1 X96.369 Y155.944 E8.7437
G1 X98.569 Y155.944 E8.81687
G1 X98.569 Y157.244 E8.86011
G0 F6000 X98.969 Y157.644
;TYPE:WALL-OUTER
G1 F1200 X95.969 Y157.644 E8.95989
G1 X95.969 Y155.544 E9.02974
G1 X98.969 Y155.544 E9.12952
G1 X98.969 Y157.644 E9.19936
G0 F6000 X98.499 Y157.174
G0 X98.179 Y156.854
;TYPE:SKIN
G1 F1200 X96.759 Y156.854 E9.24659
G1 X96.759 Y156.334 E9.26389
G1 X98.179 Y156.334 E9.31112
G1 X98.179 Y156.854 E9.32841
G0 F6000 X97.862 Y156.693
G1 F1200 X97.662 Y156.493 E9.33782
G0 F6000 X97.296 Y156.693
G1 F1200 X97.096 Y156.493 E9.34723
G1 F1500 E2.84723
G1 F300 Z0.4
G0 F6000 X97.096 Y156.493 Z0.4
G0 X98.569 Y182.306
;TYPE:WALL-INNER
G1 F300 Z0.2
G1 F1500 E9.34723
G1 F1200 X96.369 Y182.306 E9.4204
G1 X96.369 Y181.006 E9.46364
G1 X98.569 Y181.006 E9.53681
G1 X98.569 Y182.306 E9.58005
G0 F6000 X98.969 Y182.706
;TYPE:WALL-OUTER
G1 F1200 X95.969 Y182.706 E9.67983
G1 X95.969 Y180.606 E9.74968
G1 X98.969 Y180.606 E9.84946
G1 X98.969 Y182.706 E9.9193
G0 F6000 X98.499 Y182.236
G0 X98.179 Y181.916
;TYPE:SKIN
G1 F1200 X96.759 Y181.916 E9.96653
G1 X96.759 Y181.396 E9.98383
G1 X98.179 Y181.396 E10.03106
G1 X98.179 Y181.916 E10.04835
G0 F6000 X98.019 Y181.74
G1 F1200 X97.833 Y181.555 E10.05708
G0 F6000 X97.467 Y181.754
G1 F1200 X97.268 Y181.555 E10.06644
G1 F1500 E3.56644
G1 F300 Z0.4
G0 F6000 X97.268 Y181.555 Z0.4
G0 X121.431 Y182.306
;TYPE:WALL-INNER
G1 F300 Z0.2
G1 F1500 E10.06644
G1 F1200 X121.431 Y181.006 E10.10968
G1 X123.631 Y181.006 E10.18285
G1 X123.631 Y182.306 E10.22609
G1 X121.431 Y182.306 E10.29926
G0 F6000 X121.031 Y182.706
;TYPE:WALL-OUTER
G1 F1200 X121.031 Y180.606 E10.36911
G1 X124.031 Y180.606 E10.46889
G1 X124.031 Y182.706 E10.53873
G1 X121.031 Y182.706 E10.63851
G0 F6000 X121.501 Y182.236
G0 X121.821 Y181.916
;TYPE:SKIN
G1 F1200 X121.821 Y181.396 E10.65581
G1 X123.241 Y181.396 E10.70304
G1 X123.241 Y181.916 E10.72033
G1 X121.821 Y181.916 E10.76756
G0 F6000 X122.158 Y181.555
G1 F1200 X122.358 Y181.755 E10.77697
G0 F6000 X122.724 Y181.555
G1 F1200 X122.924 Y181.755 E10.78638
G1 F1500 E4.28638
G1 F300 Z0.4
G0 F6000 X122.924 Y181.755 Z0.4
G0 X73.506 Y182.306
;TYPE:WALL-INNER
G1 F300 Z0.2
G1 F1500 E10.78638
G1 F1200 X71.306 Y182.306 E10.85955
G1 X71.306 Y181.006 E10.90279
G1 X73.506 Y181.006 E10.97596
G1 X73.506 Y182.306 E11.0192
G0 F6000 X73.906 Y182.706
;TYPE:WALL-OUTER
G1 F1200 X70.906 Y182.706 E11.11898
G1 X70.906 Y180.606 E11.18882
G1 X73.906 Y180.606 E11.2886
G1 X73.906 Y182.706 E11.35845
G0 F6000 X73.436 Y182.236
G0 X73.116 Y181.916
;TYPE:SKIN
G1 F1200 X71.696 Y181.916 E11.40568
G1 X71.696 Y181.396 E11.42298
G1 X73.116 Y181.396 E11.4702
G1 X73.116 Y181.916 E11.4875
G0 F6000 X72.578 Y181.755
G1 F1200 X72.378 Y181.555 E11.49691
G0 F6000 X72.012 Y181.755
G1 F1200 X71.855 Y181.598 E11.50429
G1 F1500 E5.00429
G1 F300 Z0.4
G0 F6000 X71.855 Y181.598 Z0.4
G0 X48.444 Y182.306
;TYPE:WALL-INNER
G1 F300 Z0.2
G1 F1500 E11.50429
G1 F1200 X46.244 Y182.306 E11.57746
G1 X46.244 Y181.006 E11.6207
G1 X48.444 Y181.006 E11.69388
G1 X48.444 Y182.306 E11.73711
G0 F6000 X48.844 Y182.706
;TYPE:WALL-OUTER
G1 F1200 X45.844 Y182.706 E11.83689
G1 X45.844 Y180.606 E11.90674
G1 X48.844 Y180.606 E12.00652
G1 X48.844 Y182.706 E12.07637
G0 F6000 X48.374 Y182.236
G0 X48.054 Y181.916
;TYPE:SKIN
G1 F1200 X46.634 Y181.916 E12.1236
G1 X46.634 Y181.396 E12.14089
G1 X48.054 Y181.396 E12.18812
G1 X48.054 Y181.916 E12.20542
G0 F6000 X47.687 Y181.755
G1 F1200 X47.487 Y181.555 E12.21482
G0 F6000 X47.122 Y181.755
G1 F1200 X46.922 Y181.555 E12.22423
G1 F1500 E5.72423
G1 F300 Z0.4
G0 F6000 X46.922 Y181.555 Z0.4
G0 X48.444 Y157.244
;TYPE:WALL-INNER
G1 F300 Z0.2
G1 F1500 E12.22423
G1 F1200 X46.244 Y157.244 E12.2974
G1 X46.244 Y155.944 E12.34064
G1 X48.444 Y155.944 E12.41381
G1 X48.444 Y157.244 E12.45705
G0 F6000 X48.844 Y157.644
;TYPE:WALL-OUTER
G1 F1200 X45.844 Y157.644 E12.55683
G1 X45.844 Y155.544 E12.62668
G1 X48.844 Y155.544 E12.72646
G1 X48.844 Y157.644 E12.79631
G0 F6000 X48.374 Y157.174
G0 X48.054 Y156.854
;TYPE:SKIN
G1 F1200 X46.634 Y156.854 E12.84353
G1 X46.634 Y156.334 E12.86083
G1 X48.054 Y156.334 E12.90806
G1 X48.054 Y156.854 E12.92535
G0 F6000 X47.516 Y156.693
G1 F1200 X47.316 Y156.493 E12.93476
G0 F6000 X46.95 Y156.693
G1 F1200 X46.793 Y156.536 E12.94215
G1 F1500 E6.44215
G1 F300 Z0.4
G0 F6000 X46.793 Y156.536 Z0.4
G0 X73.506 Y157.244
;TYPE:WALL-INNER
G1 F300 Z0.2
G1 F1500 E12.94215
G1 F1200 X71.306 Y157.244 E13.01532
G1 X71.306 Y155.944 E13.05856
G1 X73.506 Y155.944 E13.13173
G1 X73.506 Y157.244 E13.17497
G0 F6000 X73.906 Y157.644
;TYPE:WALL-OUTER
G1 F1200 X70.906 Y157.644 E13.27475
G1 X70.906 Y155.544 E13.34459
G1 X73.906 Y155.544 E13.44437
G1 X73.906 Y157.644 E13.51422
G0 F6000 X73.436 Y157.174
G0 X73.116 Y156.854
;TYPE:SKIN
G1 F1200 X71.696 Y156.854 E13.56145
G1 X71.696 Y156.334 E13.57875
G1 X73.116 Y156.334 E13.62597
G1 X73.116 Y156.854 E13.64327
G0 F6000 X72.956 Y156.677
G1 F1200 X72.771 Y156.493 E13.65195
G0 F6000 X72.406 Y156.693
G1 F1200 X72.206 Y156.493 E13.66136
G1 F1500 E7.16136
G1 F300 Z0.4
G0 F6000 X72.206 Y156.493 Z0.4
G0 X73.506 Y132.181
;TYPE:WALL-INNER
G1 F300 Z0.2
G1 F1500 E13.66136
G1 F1200 X71.306 Y132.181 E13.73453
G1 X71.306 Y130.881 E13.77777
G1 X73.506 Y130.881 E13.85094
G1 X73.506 Y132.181 E13.89418
G0 F6000 X73.906 Y132.581
;TYPE:WALL-OUTER
G1 F1200 X70.906 Y132.581 E13.99396
G1 X70.906 Y130.481 E14.0638
G1 X73.906 Y130.481 E14.16358
G1 X73.906 Y132.581 E14.23343
G0 F6000 X73.436 Y132.111
G0 X73.116 Y131.791
;TYPE:SKIN
G1 F1200 X71.696 Y131.791 E14.28066
G1 X71.696 Y131.271 E14.29795
G1 X73.116 Y131.271 E14.34518
G1 X73.116 Y131.791 E14.36248
G0 F6000 X72.798 Y131.63
G1 F1200 X72.599 Y131.43 E14.37186
G0 F6000 X72.233 Y131.63
G1 F1200 X72.033 Y131.43 E14.38127
G1 F1500 E7.88127
G1 F300 Z0.4
G0 F6000 X72.033 Y131.43 Z0.4
G0 X48.444 Y132.181
;TYPE:WALL-INNER
G1 F300 Z0.2
G1 F1500 E14.38127
G1 F1200 X46.244 Y132.181 E14.45444
G1 X46.244 Y130.881 E14.49768
G1 X48.444 Y130.881 E14.57085
G1 X48.444 Y132.181 E14.61409
G0 F6000 X48.844 Y132.581
;TYPE:WALL-OUTER
G1 F1200 X45.844 Y132.581 E14.71387
G1 X45.844 Y130.481 E14.78372
G1 X48.844 Y130.481 E14.8835
G1 X48.844 Y132.581 E14.95335
G0 F6000 X48.374 Y132.111
G0 X48.054 Y131.791
;TYPE:SKIN
