;FLAVOR:Marlin
;TIME:2664
;Filament used: 1.6172m
;Layer height: 0.2
;MINX:10.2
;MINY:19.2
;MINZ:0.2
;MAXX:209.8
;MAXY:218.8
;MAXZ:0.4
;Generated with Cura_SteamEngine 4.11.0
M140 S60
M105
M190 S60
M104 S200
M105
M109 S200
M82 ;absolute extrusion mode
; Ender 3 Custom Start G-code
G92 E0 ; Reset Extruder
G28 ; Home all axes
G1 Z2.0 F3000 ; Move Z Axis up little to prevent scratching of Heat Bed
G1 X0.1 Y20 Z0.3 F5000.0 ; Move to start position
G1 X0.1 Y200.0 Z0.3 F1500.0 E15 ; Draw the first line
G1 X0.4 Y200.0 Z0.3 F5000.0 ; Move to side a little
G1 X0.4 Y20 Z0.3 F1500.0 E30 ; Draw the second line
G92 E0 ; Reset Extruder
G1 Z2.0 F3000 ; Move Z Axis up little to prevent scratching of Heat Bed
G1 X5 Y20 Z0.3 F5000.0 ; Move over to prevent blob squish
G92 E0
G92 E0
G1 F1500 E-6.5
;LAYER_COUNT:1
;LAYER:0
M107
G1 F300 Z0.4
;MESH:FullScaleChessBoardCOMP1Squares.STL(1)
G0 F6000 X109.15 Y218.4 Z0.4
;TYPE:WALL-INNER
G1 F300 Z0.2
G1 F1500 E0
G1 F1200 X85.787 Y218.4 E0.77706
G1 X85.787 Y195.037 E1.55411
G1 X109.15 Y195.037 E2.33117
G1 X109.15 Y218.4 E3.10823
G0 F6000 X109.55 Y218.8
;TYPE:WALL-OUTER
G1 F1200 X85.387 Y218.8 E3.91189
G1 X85.387 Y194.637 E4.71556
G1 X109.55 Y194.637 E5.51922
G1 X109.55 Y218.8 E6.32288
G0 F6000 X109.08 Y218.33
G0 X108.76 Y218.01
;TYPE:SKIN
G1 F1200 X86.177 Y218.01 E7.074
G1 X86.177 Y195.427 E7.82511
G1 X108.76 Y195.427 E8.57623
G1 X108.76 Y218.01 E9.32734
G0 F6000 X108.6 Y195.715
G1 F1200 X108.47 Y195.586 E9.33343
G0 F6000 X107.905 Y195.586
G1 F1200 X108.6 Y196.281 E9.36612
G0 F6000 X108.6 Y196.847
G1 F1200 X107.339 Y195.586 E9.42543
G0 F6000 X106.773 Y195.586
G1 F1200 X108.6 Y197.412 E9.51135
G0 F6000 X108.6 Y197.978
G1 F1200 X106.208 Y195.586 E9.62386
G0 F6000 X105.642 Y195.586
G1 F1200 X108.6 Y198.544 E9.763
G0 F6000 X108.6 Y199.109
G1 F1200 X105.076 Y195.586 E9.92873
G0 F6000 X104.511 Y195.586
G1 F1200 X108.6 Y199.675 E10.12106
G0 F6000 X108.6 Y200.241
G1 F1200 X103.945 Y195.586 E10.34002
G0 F6000 X103.379 Y195.586
G1 F1200 X108.6 Y200.807 E10.5856
G0 F6000 X108.6 Y201.372
G1 F1200 X102.814 Y195.586 E10.85776
G0 F6000 X102.248 Y195.586
G1 F1200 X108.6 Y201.938 E11.15654
G0 F6000 X108.6 Y202.504
G1 F1200 X101.682 Y195.586 E11.48194
G0 F6000 X101.116 Y195.586
G1 F1200 X108.6 Y203.069 E11.83394
G0 F6000 X108.6 Y203.635
G1 F1200 X100.551 Y195.586 E12.21254
G0 F6000 X99.985 Y195.586
G1 F1200 X108.6 Y204.201 E12.61776
G0 F6000 X108.6 Y204.766
G1 F1200 X99.419 Y195.586 E13.04958
G0 F6000 X98.854 Y195.586
G1 F1200 X108.6 Y205.332 E13.50801
G0 F6000 X108.6 Y205.898
G1 F1200 X98.288 Y195.586 E13.99305
G0 F6000 X97.722 Y195.586
G1 F1200 X108.6 Y206.463 E14.50469
G0 F6000 X108.6 Y207.029
G1 F1200 X97.157 Y195.586 E15.04294
G0 F6000 X96.591 Y195.586
G1 F1200 X108.6 Y207.595 E15.6078
G0 F6000 X108.6 Y208.16
G1 F1200 X96.025 Y195.586 E16.19927
G0 F6000 X95.46 Y195.586
G1 F1200 X108.6 Y208.726 E16.81734
G0 F6000 X108.6 Y209.292
G1 F1200 X94.894 Y195.586 E17.46202
G0 F6000 X94.328 Y195.586
G1 F1200 X108.6 Y209.857 E18.13331
G0 F6000 X108.6 Y210.423
G1 F1200 X93.763 Y195.586 E18.8312
G0 F6000 X93.197 Y195.586
G1 F1200 X108.6 Y210.989 E19.55571
G0 F6000 X108.6 Y211.555
G1 F1200 X92.631 Y195.586 E20.30684
G0 F6000 X92.066 Y195.586
G1 F1200 X108.6 Y212.12 E21.08455
G0 F6000 X108.6 Y212.686
G1 F1200 X91.5 Y195.586 E21.88888
G0 F6000 X90.934 Y195.586
G1 F1200 X108.6 Y213.252 E22.71984
G0 F6000 X108.6 Y213.817
G1 F1200 X90.368 Y195.586 E23.57739
G0 F6000 X89.803 Y195.586
G1 F1200 X108.6 Y214.383 E24.46154
G0 F6000 X108.6 Y214.949
G1 F1200 X89.237 Y195.586 E25.37232
G0 F6000 X88.671 Y195.586
G1 F1200 X108.6 Y215.514 E26.3097
G0 F6000 X108.6 Y216.08
G1 F1200 X88.106 Y195.586 E27.27367
G0 F6000 X87.54 Y195.586
G1 F1200 X108.6 Y216.646 E28.26427
G0 F6000 X108.6 Y217.211
G1 F1200 X86.974 Y195.586 E29.28147
G0 F6000 X86.409 Y195.586
G1 F1200 X108.6 Y217.777 E30.32526
G0 F6000 X108.106 Y217.848
G1 F1200 X86.337 Y196.08 E31.34919
G0 F6000 X86.337 Y196.645
G1 F1200 X107.54 Y217.848 E32.34651
G0 F6000 X106.974 Y217.848
G1 F1200 X86.337 Y197.211 E33.31721
G0 F6000 X86.337 Y197.777
G1 F1200 X106.408 Y217.848 E34.26129
G0 F6000 X105.843 Y217.848
G1 F1200 X86.337 Y198.342 E35.17879
G0 F6000 X86.337 Y198.908
G1 F1200 X105.277 Y217.848 E36.06967
G0 F6000 X104.711 Y217.848
G1 F1200 X86.337 Y199.474 E36.93393
G0 F6000 X86.337 Y200.039
G1 F1200 X104.146 Y217.848 E37.77161
G0 F6000 X103.58 Y217.848
G1 F1200 X86.337 Y200.605 E38.58267
G0 F6000 X86.337 Y201.171
G1 F1200 X103.014 Y217.848 E39.3671
G0 F6000 X102.449 Y217.848
G1 F1200 X86.337 Y201.736 E40.12496
G0 F6000 X86.337 Y202.302
G1 F1200 X101.883 Y217.848 E40.8562
G0 F6000 X101.317 Y217.848
G1 F1200 X86.337 Y202.868 E41.56081
G0 F6000 X86.337 Y203.433
G1 F1200 X100.752 Y217.848 E42.23885
G0 F6000 X100.186 Y217.848
G1 F1200 X86.337 Y203.999 E42.89026
G0 F6000 X86.337 Y204.565
G1 F1200 X99.62 Y217.848 E43.51505
G0 F6000 X99.055 Y217.848
G1 F1200 X86.337 Y205.13 E44.11327
G0 F6000 X86.337 Y205.696
G1 F1200 X98.489 Y217.848 E44.68486
G0 F6000 X97.923 Y217.848
G1 F1200 X86.337 Y206.262 E45.22983
G0 F6000 X86.337 Y206.828
G1 F1200 X97.357 Y217.848 E45.74818
G0 F6000 X96.792 Y217.848
G1 F1200 X86.337 Y207.393 E46.23995
G0 F6000 X86.337 Y207.959
G1 F1200 X96.226 Y217.848 E46.7051
G0 F6000 X95.66 Y217.848
G1 F1200 X86.337 Y208.525 E47.14362
G0 F6000 X86.337 Y209.09
G1 F1200 X95.095 Y217.848 E47.55557
G0 F6000 X94.529 Y217.848
G1 F1200 X86.337 Y209.656 E47.9409
G0 F6000 X86.337 Y210.222
G1 F1200 X93.963 Y217.848 E48.2996
G0 F6000 X93.398 Y217.848
G1 F1200 X86.337 Y210.787 E48.63173
G0 F6000 X86.337 Y211.353
G1 F1200 X92.832 Y217.848 E48.93724
G0 F6000 X92.266 Y217.848
G1 F1200 X86.337 Y211.919 E49.21612
G0 F6000 X86.337 Y212.484
G1 F1200 X91.701 Y217.848 E49.46842
G0 F6000 X91.135 Y217.848
G1 F1200 X86.337 Y213.05 E49.69411
G0 F6000 X86.337 Y213.616
G1 F1200 X90.569 Y217.848 E49.89317
G0 F6000 X90.004 Y217.848
G1 F1200 X86.337 Y214.181 E50.06565
G0 F6000 X86.337 Y214.747
G1 F1200 X89.438 Y217.848 E50.21151
G0 F6000 X88.872 Y217.848
G1 F1200 X86.337 Y215.313 E50.33075
G0 F6000 X86.337 Y215.878
G1 F1200 X88.307 Y217.848 E50.42341
G0 F6000 X87.741 Y217.848
G1 F1200 X86.337 Y216.444 E50.48945
G0 F6000 X86.337 Y217.01
G1 F1200 X87.175 Y217.848 E50.52887
G0 F6000 X86.609 Y217.848
G1 F1200 X86.337 Y217.576 E50.54167
G1 F1500 E44.04167
G1 F300 Z0.4
G0 F6000 X86.337 Y217.576 Z0.4
G0 X110.85 Y193.337
;TYPE:WALL-INNER
G1 F300 Z0.2
G1 F1500 E50.54167
G1 F1200 X110.85 Y169.975 E51.31869
G1 X134.213 Y169.975 E52.09575
G1 X134.213 Y193.337 E52.87277
G1 X110.85 Y193.337 E53.64982
G0 F6000 X110.45 Y193.737
;TYPE:WALL-OUTER
G1 F1200 X110.45 Y169.575 E54.45346
G1 X134.613 Y169.575 E55.25712
G1 X134.613 Y193.737 E56.06075
G1 X110.45 Y193.737 E56.86442
G0 F6000 X110.92 Y193.267
G0 X111.24 Y192.947
;TYPE:SKIN
G1 F1200 X111.24 Y170.365 E57.6155
G1 X133.823 Y170.365 E58.36661
G1 X133.823 Y192.947 E59.11769
G1 X111.24 Y192.947 E59.86881
G0 F6000 X111.893 Y192.786
G1 F1200 X111.399 Y192.292 E59.89204
G0 F6000 X111.399 Y191.727
G1 F1200 X112.458 Y192.786 E59.94185
G0 F6000 X113.024 Y192.786
G1 F1200 X111.399 Y191.161 E60.01829
G0 F6000 X111.399 Y190.595
G1 F1200 X113.59 Y192.786 E60.12135
G0 F6000 X114.156 Y192.786
G1 F1200 X111.399 Y190.029 E60.25103
G0 F6000 X111.399 Y189.464
G1 F1200 X114.721 Y192.786 E60.40728
G0 F6000 X115.287 Y192.786
G1 F1200 X111.399 Y188.898 E60.59016
G0 F6000 X111.399 Y188.332
G1 F1200 X115.853 Y192.786 E60.79967
G0 F6000 X116.418 Y192.786
G1 F1200 X111.399 Y187.767 E61.03574
G0 F6000 X111.399 Y187.201
G1 F1200 X116.984 Y192.786 E61.29845
G0 F6000 X117.55 Y192.786
G1 F1200 X111.399 Y186.635 E61.58777
G0 F6000 X111.399 Y186.07
G1 F1200 X118.115 Y192.786 E61.90367
G0 F6000 X118.681 Y192.786
G1 F1200 X111.399 Y185.504 E62.24619
G0 F6000 X111.399 Y184.938
G1 F1200 X119.247 Y192.786 E62.61534
G0 F6000 X119.812 Y192.786
G1 F1200 X111.399 Y184.373 E63.01106
G0 F6000 X111.399 Y183.807
G1 F1200 X120.378 Y192.786 E63.43341
G0 F6000 X120.944 Y192.786
G1 F1200 X111.399 Y183.241 E63.88237
G0 F6000 X111.399 Y182.676
G1 F1200 X121.509 Y192.786 E64.35792
G0 F6000 X122.075 Y192.786
G1 F1200 X111.399 Y182.11 E64.86008
G0 F6000 X111.399 Y181.544
G1 F1200 X122.641 Y192.786 E65.38887
G0 F6000 X123.206 Y192.786
G1 F1200 X111.399 Y180.979 E65.94424
G0 F6000 X111.399 Y180.413
G1 F1200 X123.772 Y192.786 E66.52622
G0 F6000 X124.338 Y192.786
G1 F1200 X111.399 Y179.847 E67.13484
G0 F6000 X111.399 Y179.281
G1 F1200 X124.904 Y192.786 E67.77007
G0 F6000 X125.469 Y192.786
G1 F1200 X111.399 Y178.716 E68.43188
G0 F6000 X111.399 Y178.15
G1 F1200 X126.035 Y192.786 E69.12031
G0 F6000 X126.601 Y192.786
G1 F1200 X111.399 Y177.584 E69.83537
G0 F6000 X111.399 Y177.019
G1 F1200 X127.166 Y192.786 E70.577
G0 F6000 X127.732 Y192.786
G1 F1200 X111.399 Y176.453 E71.34525
G0 F6000 X111.399 Y175.887
G1 F1200 X128.298 Y192.786 E72.14013
G0 F6000 X128.863 Y192.786
G1 F1200 X111.399 Y175.322 E72.96158
G0 F6000 X111.399 Y174.756
G1 F1200 X129.429 Y192.786 E73.80966
G0 F6000 X129.995 Y192.786
G1 F1200 X111.399 Y174.19 E74.68436
G0 F6000 X111.399 Y173.625
G1 F1200 X130.56 Y192.786 E75.58563
G0 F6000 X131.126 Y192.786
G1 F1200 X111.399 Y173.059 E76.51353
G0 F6000 X111.399 Y172.493
G1 F1200 X131.692 Y192.786 E77.46805
G0 F6000 X132.257 Y192.786
G1 F1200 X111.399 Y171.928 E78.44915
G0 F6000 X111.399 Y171.362
G1 F1200 X132.823 Y192.786 E79.45687
G0 F6000 X133.389 Y192.786
G1 F1200 X111.399 Y170.796 E80.49121
G0 F6000 X111.693 Y170.524
G1 F1200 X133.663 Y192.494 E81.52461
G0 F6000 X133.663 Y191.929
G1 F1200 X112.258 Y170.524 E82.53144
G0 F6000 X112.824 Y170.524
G1 F1200 X133.663 Y191.363 E83.51164
G0 F6000 X133.663 Y190.797
G1 F1200 X113.39 Y170.524 E84.46522
G0 F6000 X113.955 Y170.524
G1 F1200 X133.663 Y190.232 E85.39222
G0 F6000 X133.663 Y189.666
G1 F1200 X114.521 Y170.524 E86.2926
G0 F6000 X115.087 Y170.524
G1 F1200 X133.663 Y189.1 E87.16636
G0 F6000 X133.663 Y188.535
G1 F1200 X115.652 Y170.524 E88.01354
G0 F6000 X116.218 Y170.524
G1 F1200 X133.663 Y187.969 E88.8341
G0 F6000 X133.663 Y187.403
G1 F1200 X116.784 Y170.524 E89.62804
G0 F6000 X117.35 Y170.524
G1 F1200 X133.663 Y186.838 E90.39538
G0 F6000 X133.663 Y186.272
G1 F1200 X117.915 Y170.524 E91.13611
G0 F6000 X118.481 Y170.524
G1 F1200 X133.663 Y185.706 E91.85023
G0 F6000 X133.663 Y185.141
G1 F1200 X119.047 Y170.524 E92.53774
G0 F6000 X119.612 Y170.524
G1 F1200 X133.663 Y184.575 E93.19866
G0 F6000 X133.663 Y184.009
G1 F1200 X120.178 Y170.524 E93.83295
G0 F6000 X120.744 Y170.524
G1 F1200 X133.663 Y183.444 E94.44065
G0 F6000 X133.663 Y182.878
G1 F1200 X121.309 Y170.524 E95.02174
G0 F6000 X121.875 Y170.524
G1 F1200 X133.663 Y182.312 E95.57621
G0 F6000 X133.663 Y181.746
G1 F1200 X122.441 Y170.524 E96.10406
G0 F6000 X123.006 Y170.524
G1 F1200 X133.663 Y181.181 E96.60533
G0 F6000 X133.663 Y180.615
G1 F1200 X123.572 Y170.524 E97.07998
G0 F6000 X124.138 Y170.524
G1 F1200 X133.663 Y180.049 E97.52801
G0 F6000 X133.663 Y179.484
G1 F1200 X124.703 Y170.524 E97.94946
G0 F6000 X125.269 Y170.524
G1 F1200 X133.663 Y178.918 E98.34429
G0 F6000 X133.663 Y178.352
G1 F1200 X125.835 Y170.524 E98.71249
G0 F6000 X126.4 Y170.524
G1 F1200 X133.663 Y177.787 E99.05412
G0 F6000 X133.663 Y177.221
G1 F1200 X126.966 Y170.524 E99.36913
G0 F6000 X127.532 Y170.524
G1 F1200 X133.663 Y176.655 E99.65751
G0 F6000 X133.663 Y176.09
G1 F1200 X128.098 Y170.524 E99.9193
G0 F6000 X128.663 Y170.524
G1 F1200 X133.663 Y175.524 E100.15448
G0 F6000 X133.663 Y174.958
G1 F1200 X129.229 Y170.524 E100.36304
G0 F6000 X129.795 Y170.524
G1 F1200 X133.663 Y174.393 E100.54501
G0 F6000 X133.663 Y173.827
G1 F1200 X130.36 Y170.524 E100.70037
G0 F6000 X130.926 Y170.524
G1 F1200 X133.663 Y173.261 E100.82911
G0 F6000 X133.663 Y172.695
G1 F1200 X131.492 Y170.524 E100.93123
G0 F6000 X132.057 Y170.524
G1 F1200 X133.663 Y172.13 E101.00677
G0 F6000 X133.663 Y171.564
G1 F1200 X132.623 Y170.524 E101.05569
G0 F6000 X133.189 Y170.524
G1 F1200 X133.663 Y170.998 E101.07798
G1 F1500 E94.57798
G1 F300 Z0.4
G0 F6000 X133.663 Y170.998 Z0.4
G0 X109.15 Y168.275
;TYPE:WALL-INNER
G1 F300 Z0.2
G1 F1500 E101.07798
G1 F1200 X85.787 Y168.275 E101.85504
G1 X85.787 Y144.912 E102.63209
G1 X109.15 Y144.912 E103.40915
G1 X109.15 Y168.275 E104.18621
G0 F6000 X109.55 Y168.675
;TYPE:WALL-OUTER
G1 F1200 X85.387 Y168.675 E104.98987
G1 X85.387 Y144.512 E105.79354
G1 X109.55 Y144.512 E106.5972
G1 X109.55 Y168.675 E107.40087
G0 F6000 X109.08 Y168.205
G0 X108.76 Y167.885
;TYPE:SKIN
G1 F1200 X86.177 Y167.885 E108.15198
G1 X86.177 Y145.302 E108.90309
G1 X108.76 Y145.302 E109.65421
G1 X108.76 Y167.885 E110.40532
G0 F6000 X108.6 Y145.935
G1 F1200 X108.125 Y145.461 E110.42764
G0 F6000 X107.56 Y145.461
G1 F1200 X108.6 Y146.501 E110.47656
G0 F6000 X108.6 Y147.066
G1 F1200 X106.994 Y145.461 E110.55208
G0 F6000 X106.428 Y145.461
G1 F1200 X108.6 Y147.632 E110.65422
G0 F6000 X108.6 Y148.198
G1 F1200 X105.863 Y145.461 E110.78296
G0 F6000 X105.297 Y145.461
G1 F1200 X108.6 Y148.763 E110.9383
G0 F6000 X108.6 Y149.329
G1 F1200 X104.731 Y145.461 E111.12026
G0 F6000 X104.166 Y145.461
G1 F1200 X108.6 Y149.895 E111.32882
G0 F6000 X108.6 Y150.461
G1 F1200 X103.6 Y145.461 E111.564
G0 F6000 X103.034 Y145.461
G1 F1200 X108.6 Y151.026 E111.82579
G0 F6000 X108.6 Y151.592
G1 F1200 X102.468 Y145.461 E112.1142
G0 F6000 X101.903 Y145.461
G1 F1200 X108.6 Y152.158 E112.4292
G0 F6000 X108.6 Y152.723
G1 F1200 X101.337 Y145.461 E112.77081
G0 F6000 X100.771 Y145.461
G1 F1200 X108.6 Y153.289 E113.13904
G0 F6000 X108.6 Y153.855
G1 F1200 X100.206 Y145.461 E113.53386
G0 F6000 X99.64 Y145.461
G1 F1200 X108.6 Y154.42 E113.95529
G0 F6000 X108.6 Y154.986
G1 F1200 X99.074 Y145.461 E114.40334
G0 F6000 X98.509 Y145.461
G1 F1200 X108.6 Y155.552 E114.87799
G0 F6000 X108.6 Y156.117
G1 F1200 X97.943 Y145.461 E115.37924
G0 F6000 X97.377 Y145.461
G1 F1200 X108.6 Y156.683 E115.90711
G0 F6000 X108.6 Y157.249
G1 F1200 X96.812 Y145.461 E116.46158
G0 F6000 X96.246 Y145.461
G1 F1200 X108.6 Y157.814 E117.04265
G0 F6000 X108.6 Y158.38
G1 F1200 X95.68 Y145.461 E117.65035
G0 F6000 X95.115 Y145.461
G1 F1200 X108.6 Y158.946 E118.28464
G0 F6000 X108.6 Y159.511
G1 F1200 X94.549 Y145.461 E118.94553
G0 F6000 X93.983 Y145.461
G1 F1200 X108.6 Y160.077 E119.63305
G0 F6000 X108.6 Y160.643
G1 F1200 X93.417 Y145.461 E120.34719
G0 F6000 X92.852 Y145.461
G1 F1200 X108.6 Y161.209 E121.08792
G0 F6000 X108.6 Y161.774
G1 F1200 X92.286 Y145.461 E121.85526
G0 F6000 X91.72 Y145.461
G1 F1200 X108.6 Y162.34 E122.64922
G0 F6000 X108.6 Y162.906
G1 F1200 X91.155 Y145.461 E123.46978
G0 F6000 X90.589 Y145.461
G1 F1200 X108.6 Y163.471 E124.31694
G0 F6000 X108.6 Y164.037
G1 F1200 X90.023 Y145.461 E125.19072
G0 F6000 X89.458 Y145.461
G1 F1200 X108.6 Y164.603 E126.0911
G0 F6000 X108.6 Y165.168
G1 F1200 X88.892 Y145.461 E127.01808
G0 F6000 X88.326 Y145.461
G1 F1200 X108.6 Y165.734 E127.97169
G0 F6000 X108.6 Y166.3
G1 F1200 X87.761 Y145.461 E128.95189
G0 F6000 X87.195 Y145.461
G1 F1200 X108.6 Y166.865 E129.95869
G0 F6000 X108.6 Y167.431
G1 F1200 X86.629 Y145.461 E130.99212
G0 F6000 X86.336 Y145.733
G1 F1200 X108.327 Y167.724 E132.02651
G0 F6000 X107.761 Y167.724
G1 F1200 X86.336 Y146.298 E133.03429
G0 F6000 X86.336 Y146.864
G1 F1200 X107.195 Y167.724 E134.01546
G0 F6000 X106.63 Y167.724
G1 F1200 X86.336 Y147.43 E134.97003
G0 F6000 X86.336 Y147.996
G1 F1200 X106.064 Y167.724 E135.89797
G0 F6000 X105.498 Y167.724
G1 F1200 X86.336 Y148.561 E136.79932
G0 F6000 X86.336 Y149.127
G1 F1200 X104.933 Y167.724 E137.67407
G0 F6000 X104.367 Y167.724
G1 F1200 X86.336 Y149.693 E138.52219
G0 F6000 X86.336 Y150.258
G1 F1200 X103.801 Y167.724 E139.34371
G0 F6000 X103.236 Y167.724
G1 F1200 X86.336 Y150.824 E140.13864
G0 F6000 X86.336 Y151.39
G1 F1200 X102.67 Y167.724 E140.90694
G0 F6000 X102.104 Y167.724
G1 F1200 X86.336 Y151.955 E141.64864
G0 F6000 X86.336 Y152.521
G1 F1200 X101.539 Y167.724 E142.36374
G0 F6000 X100.973 Y167.724
G1 F1200 X86.336 Y153.087 E143.05222
G0 F6000 X86.336 Y153.652
G1 F1200 X100.407 Y167.724 E143.7141
G0 F6000 X99.842 Y167.724
G1 F1200 X86.336 Y154.218 E144.34938
G0 F6000 X86.336 Y154.784
G1 F1200 X99.276 Y167.724 E144.95804
G0 F6000 X98.71 Y167.724
