;FLAVOR:Marlin
;TIME:37919
;Filament used: 27.2577m
;Layer height: 0.2
;MINX:10.2
;MINY:19.2
;MINZ:0.2
;MAXX:209.8
;MAXY:218.8
;MAXZ:2.8
;Generated with Cura_SteamEngine 4.11.0
M140 S60
M105
M190 S60
M104 S200
M105
M109 S200
M82 ;absolute extrusion mode
; Ender 3 Custom Start G-code
G92 E0 ; Reset Extruder
G28 ; Home all axes
G1 Z2.0 F3000 ; Move Z Axis up little to prevent scratching of Heat Bed
G1 X0.1 Y20 Z0.3 F5000.0 ; Move to start position
G1 X0.1 Y200.0 Z0.3 F1500.0 E15 ; Draw the first line
G1 X0.4 Y200.0 Z0.3 F5000.0 ; Move to side a little
G1 X0.4 Y20 Z0.3 F1500.0 E30 ; Draw the second line
G92 E0 ; Reset Extruder
G1 Z2.0 F3000 ; Move Z Axis up little to prevent scratching of Heat Bed
G1 X5 Y20 Z0.3 F5000.0 ; Move over to prevent blob squish
G92 E0
G92 E0
G1 F1500 E-6.5
;LAYER_COUNT:14
;LAYER:0
M107
G1 F300 Z0.4
;MESH:FullScaleChessBoardCOMP3Structure.STL
G0 F6000 X27.529 Y186.454 Z0.4
;TYPE:WALL-INNER
G1 F300 Z0.2
G1 F1500 E0
G1 F1200 X27.529 Y176.856 E0.31923
G1 X25.13 Y176.856 E0.39902
G1 X25.13 Y173.815 E0.50017
G1 X19.43 Y173.815 E0.68975
G1 X19.43 Y176.855 E0.79086
G1 X17.229 Y176.855 E0.86407
G1 X17.03 Y176.855 E0.87068
G1 X17.03 Y177.054 E0.87497
G1 X17.031 Y186.454 E1.18761
G1 X27.529 Y186.454 E1.53678
G0 F6000 X27.129 Y186.054
;TYPE:WALL-OUTER
G1 F1200 X27.129 Y177.256 E1.8294
G1 X24.73 Y177.256 E1.90919
G1 X24.73 Y174.215 E2.01033
G1 X19.83 Y174.215 E2.17331
G1 X19.83 Y177.255 E2.27442
G1 X17.43 Y177.255 E2.35424
G1 X17.431 Y186.054 E2.6469
G1 X27.129 Y186.054 E2.96946
G0 F6000 X27.629 Y186.054
G0 X27.599 Y211.586
G0 X27.529 Y211.516
;TYPE:WALL-INNER
G1 F1200 X27.529 Y201.918 E3.28869
G1 X25.13 Y201.918 E3.36848
G1 X25.13 Y198.878 E3.46959
G1 X19.43 Y198.878 E3.65917
G1 X19.43 Y201.917 E3.76025
G1 X17.229 Y201.917 E3.83346
G1 X17.03 Y201.917 E3.84007
G1 X17.03 Y202.116 E3.84436
G1 X17.031 Y211.516 E4.157
G1 X27.529 Y211.516 E4.50617
G0 F6000 X27.129 Y211.116
;TYPE:WALL-OUTER
G1 F1200 X27.129 Y202.318 E4.79879
G1 X24.73 Y202.318 E4.87858
G1 X24.73 Y199.278 E4.97969
G1 X19.83 Y199.278 E5.14267
G1 X19.83 Y202.317 E5.24374
G1 X17.43 Y202.317 E5.32357
G1 X17.431 Y211.116 E5.61622
G1 X27.129 Y211.116 E5.93878
G0 F6000 X27.629 Y211.116
G0 X42.066 Y211.544
G0 X52.661 Y211.586
G0 X52.591 Y211.516
;TYPE:WALL-INNER
G1 F1200 X52.591 Y201.918 E6.25801
G1 X50.193 Y201.918 E6.33777
G1 X50.193 Y198.878 E6.43888
G1 X44.492 Y198.878 E6.6285
G1 X44.492 Y201.917 E6.72957
G1 X42.292 Y201.917 E6.80275
G1 X42.093 Y201.917 E6.80936
G1 X42.093 Y202.116 E6.81365
G1 X42.094 Y211.516 E7.12629
G1 X52.591 Y211.516 E7.47542
G0 F6000 X52.191 Y211.116
;TYPE:WALL-OUTER
G1 F1200 X52.191 Y202.318 E7.76805
G1 X49.793 Y202.318 E7.8478
G1 X49.793 Y199.278 E7.94891
G1 X44.892 Y199.278 E8.11192
G1 X44.892 Y202.317 E8.213
G1 X42.493 Y202.317 E8.29279
G1 X42.494 Y211.116 E8.58545
G1 X52.191 Y211.116 E8.90797
G0 F6000 X52.691 Y211.116
G0 X52.661 Y186.524
G0 X52.591 Y186.454
;TYPE:WALL-INNER
G1 F1200 X52.591 Y176.856 E9.2272
G1 X50.193 Y176.856 E9.30696
G1 X50.193 Y173.815 E9.4081
G1 X44.492 Y173.815 E9.59772
G1 X44.492 Y176.855 E9.69883
G1 X42.292 Y176.855 E9.772
G1 X42.093 Y176.855 E9.77862
G1 X42.093 Y177.054 E9.7829
G1 X42.094 Y186.454 E10.09555
G1 X52.591 Y186.454 E10.44468
G0 F6000 X52.191 Y186.054
;TYPE:WALL-OUTER
G1 F1200 X52.191 Y177.256 E10.7373
G1 X49.793 Y177.256 E10.81706
G1 X49.793 Y174.215 E10.91821
G1 X44.892 Y174.215 E11.08121
G1 X44.892 Y177.255 E11.18232
G1 X42.493 Y177.255 E11.26211
G1 X42.494 Y186.054 E11.55477
G1 X52.191 Y186.054 E11.87729
G1 F1500 E5.37729
G0 F6000 X52.691 Y186.054
G0 X67.127 Y101.64
G0 X77.682 Y86.232
G0 X77.724 Y61.212
G1 F1500 E11.87729
G0 F6000 X77.654 Y61.142
;TYPE:WALL-INNER
G1 F1200 X77.654 Y51.544 E12.19653
G1 X75.255 Y51.544 E12.27632
G1 X75.255 Y48.503 E12.37746
G1 X69.555 Y48.503 E12.56704
G1 X69.555 Y51.543 E12.66815
G1 X67.354 Y51.543 E12.74136
G1 X67.155 Y51.543 E12.74798
G1 X67.155 Y51.742 E12.75226
G1 X67.156 Y61.142 E13.06491
G1 X77.654 Y61.142 E13.41407
G0 F6000 X77.254 Y60.742
;TYPE:WALL-OUTER
G1 F1200 X77.254 Y51.944 E13.70669
G1 X74.855 Y51.944 E13.78648
G1 X74.855 Y48.903 E13.88763
G1 X69.955 Y48.903 E14.0506
G1 X69.955 Y51.943 E14.15171
G1 X67.555 Y51.943 E14.23154
G1 X67.556 Y60.742 E14.52419
G1 X77.254 Y60.742 E14.84675
G0 F6000 X77.754 Y60.742
G0 X77.724 Y86.274
G0 X77.654 Y86.204
;TYPE:WALL-INNER
G1 F1200 X77.654 Y76.606 E15.16598
G1 X75.255 Y76.606 E15.24577
G1 X75.255 Y73.565 E15.34692
G1 X69.555 Y73.565 E15.5365
G1 X69.555 Y76.605 E15.63761
G1 X67.354 Y76.605 E15.71082
G1 X67.155 Y76.605 E15.71743
G1 X67.155 Y76.804 E15.72172
G1 X67.156 Y86.204 E16.03436
G1 X77.654 Y86.204 E16.38353
G0 F6000 X77.254 Y85.804
;TYPE:WALL-OUTER
G1 F1200 X77.254 Y77.006 E16.67615
G1 X74.855 Y77.006 E16.75594
G1 X74.855 Y73.965 E16.85708
G1 X69.955 Y73.965 E17.02006
G1 X69.955 Y77.005 E17.12117
G1 X67.555 Y77.005 E17.20099
G1 X67.556 Y85.804 E17.49365
G1 X77.254 Y85.804 E17.81621
G1 F1500 E11.31621
G0 F6000 X77.754 Y85.804
G0 X92.191 Y86.232
G0 X192.399 Y86.274
G1 F1500 E17.81621
G0 F6000 X192.469 Y86.204
;TYPE:WALL-INNER
G1 F1200 X202.966 Y86.204 E18.16534
G1 X202.966 Y76.606 E18.48457
G1 X200.567 Y76.606 E18.56436
G1 X200.567 Y73.565 E18.66551
G1 X194.867 Y73.565 E18.85509
G1 X194.867 Y76.605 E18.9562
G1 X192.667 Y76.605 E19.02937
G1 X192.468 Y76.605 E19.03599
G1 X192.468 Y76.804 E19.04027
G1 X192.469 Y86.204 E19.35292
G0 F6000 X192.869 Y85.804
;TYPE:WALL-OUTER
G1 F1200 X202.566 Y85.804 E19.67544
G1 X202.566 Y77.006 E19.96806
G1 X200.167 Y77.006 E20.04785
G1 X200.167 Y73.965 E20.149
G1 X195.267 Y73.965 E20.31197
G1 X195.267 Y77.005 E20.41308
G1 X192.868 Y77.005 E20.49288
G1 X192.869 Y85.804 E20.78553
G0 F6000 X192.869 Y86.304
G0 X192.441 Y86.232
G0 X192.399 Y61.212
G0 X192.469 Y61.142
;TYPE:WALL-INNER
G1 F1200 X202.966 Y61.142 E21.13466
G1 X202.966 Y51.544 E21.45389
G1 X200.567 Y51.544 E21.53368
G1 X200.567 Y48.503 E21.63483
G1 X194.867 Y48.503 E21.82441
G1 X194.867 Y51.543 E21.92552
G1 X192.667 Y51.543 E21.99869
G1 X192.468 Y51.543 E22.00531
G1 X192.468 Y51.742 E22.0096
G1 X192.469 Y61.142 E22.32224
G0 F6000 X192.869 Y60.742
;TYPE:WALL-OUTER
G1 F1200 X202.566 Y60.742 E22.64476
G1 X202.566 Y51.944 E22.93739
G1 X200.167 Y51.944 E23.01718
G1 X200.167 Y48.903 E23.11832
G1 X195.267 Y48.903 E23.2813
G1 X195.267 Y51.943 E23.38241
G1 X192.868 Y51.943 E23.4622
G1 X192.869 Y60.742 E23.75485
G0 F6000 X192.869 Y61.242
G0 X192.441 Y61.17
G0 X192.399 Y36.149
G0 X192.469 Y36.079
;TYPE:WALL-INNER
G1 F1200 X202.966 Y36.079 E24.10399
G1 X202.966 Y26.481 E24.42322
G1 X200.567 Y26.481 E24.50301
G1 X200.567 Y23.44 E24.60415
G1 X194.867 Y23.44 E24.79373
G1 X194.867 Y26.48 E24.89485
G1 X192.667 Y26.48 E24.96802
G1 X192.468 Y26.48 E24.97464
G1 X192.468 Y26.679 E24.97892
G1 X192.469 Y36.079 E25.29156
G0 F6000 X192.869 Y35.679
;TYPE:WALL-OUTER
G1 F1200 X202.566 Y35.679 E25.61409
G1 X202.566 Y26.881 E25.90671
G1 X200.167 Y26.881 E25.9865
G1 X200.167 Y23.84 E26.08765
G1 X195.267 Y23.84 E26.25062
G1 X195.267 Y26.88 E26.35173
G1 X192.868 Y26.88 E26.43152
G1 X192.869 Y35.679 E26.72418
G0 F6000 X192.869 Y36.179
G0 X167.336 Y36.149
G0 X167.406 Y36.079
;TYPE:WALL-INNER
G1 F1200 X177.904 Y36.079 E27.07334
G1 X177.904 Y26.481 E27.39257
G1 X175.505 Y26.481 E27.47236
G1 X175.505 Y23.44 E27.57351
G1 X169.805 Y23.44 E27.76309
G1 X169.805 Y26.48 E27.8642
G1 X167.604 Y26.48 E27.93741
G1 X167.405 Y26.48 E27.94403
G1 X167.405 Y26.679 E27.94831
G1 X167.406 Y36.079 E28.26095
G0 F6000 X167.806 Y35.679
;TYPE:WALL-OUTER
G1 F1200 X177.504 Y35.679 E28.58351
G1 X177.504 Y26.881 E28.87613
G1 X175.105 Y26.881 E28.95592
G1 X175.105 Y23.84 E29.05707
G1 X170.205 Y23.84 E29.22004
G1 X170.205 Y26.88 E29.32115
G1 X167.805 Y26.88 E29.40098
G1 X167.806 Y35.679 E29.69363
G0 F6000 X167.806 Y36.179
G0 X142.274 Y36.149
G0 X142.344 Y36.079
;TYPE:WALL-INNER
G1 F1200 X152.841 Y36.079 E30.04277
G1 X152.841 Y26.481 E30.362
G1 X150.442 Y26.481 E30.44179
G1 X150.442 Y23.44 E30.54293
G1 X144.742 Y23.44 E30.73252
G1 X144.742 Y26.48 E30.83363
G1 X142.542 Y26.48 E30.9068
G1 X142.343 Y26.48 E30.91342
G1 X142.343 Y26.679 E30.9177
G1 X142.344 Y36.079 E31.23034
G0 F6000 X142.744 Y35.679
;TYPE:WALL-OUTER
G1 F1200 X152.441 Y35.679 E31.55287
G1 X152.441 Y26.881 E31.84549
G1 X150.042 Y26.881 E31.92528
G1 X150.042 Y23.84 E32.02643
G1 X145.142 Y23.84 E32.1894
G1 X145.142 Y26.88 E32.29051
G1 X142.743 Y26.88 E32.3703
G1 X142.744 Y35.679 E32.66296
G0 F6000 X142.744 Y36.179
G0 X142.315 Y51.515
G0 X142.274 Y61.212
G0 X142.344 Y61.142
;TYPE:WALL-INNER
G1 F1200 X152.841 Y61.142 E33.01209
G1 X152.841 Y51.544 E33.33132
G1 X150.442 Y51.544 E33.41111
G1 X150.442 Y48.503 E33.51226
G1 X144.742 Y48.503 E33.70184
G1 X144.742 Y51.543 E33.80295
G1 X142.542 Y51.543 E33.87612
G1 X142.343 Y51.543 E33.88274
G1 X142.343 Y51.742 E33.88702
G1 X142.344 Y61.142 E34.19967
G0 F6000 X142.744 Y60.742
;TYPE:WALL-OUTER
G1 F1200 X152.441 Y60.742 E34.52219
G1 X152.441 Y51.944 E34.81481
G1 X150.042 Y51.944 E34.89461
G1 X150.042 Y48.903 E34.99575
G1 X145.142 Y48.903 E35.15872
G1 X145.142 Y51.943 E35.25983
G1 X142.743 Y51.943 E35.33963
G1 X142.744 Y60.742 E35.63228
G0 F6000 X142.744 Y61.242
G0 X167.336 Y61.212
G0 X167.406 Y61.142
;TYPE:WALL-INNER
G1 F1200 X177.904 Y61.142 E35.98145
G1 X177.904 Y51.544 E36.30068
G1 X175.505 Y51.544 E36.38047
G1 X175.505 Y48.503 E36.48161
G1 X169.805 Y48.503 E36.6712
G1 X169.805 Y51.543 E36.77231
G1 X167.604 Y51.543 E36.84551
G1 X167.405 Y51.543 E36.85213
G1 X167.405 Y51.742 E36.85641
G1 X167.406 Y61.142 E37.16906
G0 F6000 X167.806 Y60.742
;TYPE:WALL-OUTER
G1 F1200 X177.504 Y60.742 E37.49162
G1 X177.504 Y51.944 E37.78424
G1 X175.105 Y51.944 E37.86403
G1 X175.105 Y48.903 E37.96517
G1 X170.205 Y48.903 E38.12815
G1 X170.205 Y51.943 E38.22926
G1 X167.805 Y51.943 E38.30908
G1 X167.806 Y60.742 E38.60174
G0 F6000 X167.806 Y61.242
G0 X167.377 Y76.577
G0 X167.336 Y86.274
G0 X167.406 Y86.204
;TYPE:WALL-INNER
G1 F1200 X177.904 Y86.204 E38.9509
G1 X177.904 Y76.606 E39.27013
G1 X175.505 Y76.606 E39.34993
G1 X175.505 Y73.565 E39.45107
G1 X169.805 Y73.565 E39.64065
G1 X169.805 Y76.605 E39.74176
G1 X167.604 Y76.605 E39.81497
G1 X167.405 Y76.605 E39.82159
G1 X167.405 Y76.804 E39.82587
G1 X167.406 Y86.204 E40.13851
G0 F6000 X167.806 Y85.804
;TYPE:WALL-OUTER
G1 F1200 X177.504 Y85.804 E40.46107
G1 X177.504 Y77.006 E40.75369
G1 X175.105 Y77.006 E40.83349
G1 X175.105 Y73.965 E40.93463
G1 X170.205 Y73.965 E41.0976
G1 X170.205 Y77.005 E41.19871
G1 X167.805 Y77.005 E41.27854
G1 X167.806 Y85.804 E41.5712
G0 F6000 X167.806 Y86.304
G0 X142.274 Y86.274
G0 X142.344 Y86.204
;TYPE:WALL-INNER
G1 F1200 X152.841 Y86.204 E41.92033
G1 X152.841 Y76.606 E42.23956
G1 X150.442 Y76.606 E42.31935
G1 X150.442 Y73.565 E42.42049
G1 X144.742 Y73.565 E42.61008
G1 X144.742 Y76.605 E42.71119
G1 X142.542 Y76.605 E42.78436
G1 X142.343 Y76.605 E42.79098
G1 X142.343 Y76.804 E42.79526
G1 X142.344 Y86.204 E43.1079
G0 F6000 X142.744 Y85.804
;TYPE:WALL-OUTER
G1 F1200 X152.441 Y85.804 E43.43043
G1 X152.441 Y77.006 E43.72305
G1 X150.042 Y77.006 E43.80284
G1 X150.042 Y73.965 E43.90399
G1 X145.142 Y73.965 E44.06696
G1 X145.142 Y77.005 E44.16807
G1 X142.743 Y77.005 E44.24786
G1 X142.744 Y85.804 E44.54052
G0 F6000 X142.744 Y86.304
G0 X117.211 Y86.274
G0 X117.281 Y86.204
;TYPE:WALL-INNER
G1 F1200 X127.779 Y86.204 E44.88968
G1 X127.779 Y76.606 E45.20891
G1 X125.38 Y76.606 E45.28871
G1 X125.38 Y73.565 E45.38985
G1 X119.68 Y73.565 E45.57943
G1 X119.68 Y76.605 E45.68054
G1 X117.479 Y76.605 E45.75375
G1 X117.28 Y76.605 E45.76037
G1 X117.28 Y76.804 E45.76465
G1 X117.281 Y86.204 E46.0773
G0 F6000 X117.681 Y85.804
;TYPE:WALL-OUTER
G1 F1200 X127.379 Y85.804 E46.39985
G1 X127.379 Y77.006 E46.69247
G1 X124.98 Y77.006 E46.77227
G1 X124.98 Y73.965 E46.87341
G1 X120.08 Y73.965 E47.03638
G1 X120.08 Y77.005 E47.1375
G1 X117.68 Y77.005 E47.21732
G1 X117.681 Y85.804 E47.50998
G0 F6000 X117.681 Y86.304
G0 X102.786 Y86.274
G0 X102.716 Y86.204
;TYPE:WALL-INNER
G1 F1200 X102.716 Y76.606 E47.82921
G1 X100.317 Y76.606 E47.909
G1 X100.317 Y73.565 E48.01014
G1 X94.617 Y73.565 E48.19972
G1 X94.617 Y76.605 E48.30083
G1 X92.417 Y76.605 E48.37401
G1 X92.218 Y76.605 E48.38063
G1 X92.218 Y76.804 E48.38491
G1 X92.219 Y86.204 E48.69755
G1 X102.716 Y86.204 E49.04669
G0 F6000 X102.316 Y85.804
;TYPE:WALL-OUTER
G1 F1200 X102.316 Y77.006 E49.33931
G1 X99.917 Y77.006 E49.4191
G1 X99.917 Y73.965 E49.52024
G1 X95.017 Y73.965 E49.68322
G1 X95.017 Y77.005 E49.78433
G1 X92.618 Y77.005 E49.86412
G1 X92.619 Y85.804 E50.15678
G1 X102.316 Y85.804 E50.4793
G0 F6000 X102.816 Y85.804
G0 X102.786 Y61.212
G0 X102.716 Y61.142
;TYPE:WALL-INNER
G1 F1200 X102.716 Y51.544 E50.79853
G1 X100.317 Y51.544 E50.87832
G1 X100.317 Y48.503 E50.97946
G1 X94.617 Y48.503 E51.16905
G1 X94.617 Y51.543 E51.27016
G1 X92.417 Y51.543 E51.34333
G1 X92.218 Y51.543 E51.34995
G1 X92.218 Y51.742 E51.35423
G1 X92.219 Y61.142 E51.66688
G1 X102.716 Y61.142 E52.01601
G0 F6000 X102.316 Y60.742
;TYPE:WALL-OUTER
G1 F1200 X102.316 Y51.944 E52.30863
G1 X99.917 Y51.944 E52.38842
G1 X99.917 Y48.903 E52.48957
G1 X95.017 Y48.903 E52.65254
G1 X95.017 Y51.943 E52.75365
G1 X92.618 Y51.943 E52.83344
G1 X92.619 Y60.742 E53.1261
G1 X102.316 Y60.742 E53.44862
G0 F6000 X102.816 Y60.742
G0 X117.211 Y61.212
G0 X117.281 Y61.142
;TYPE:WALL-INNER
G1 F1200 X127.779 Y61.142 E53.79779
G1 X127.779 Y51.544 E54.11702
G1 X125.38 Y51.544 E54.19681
G1 X125.38 Y48.503 E54.29795
G1 X119.68 Y48.503 E54.48754
G1 X119.68 Y51.543 E54.58865
G1 X117.479 Y51.543 E54.66185
G1 X117.28 Y51.543 E54.66847
G1 X117.28 Y51.742 E54.67275
G1 X117.281 Y61.142 E54.9854
G0 F6000 X117.681 Y60.742
;TYPE:WALL-OUTER
G1 F1200 X127.379 Y60.742 E55.30796
G1 X127.379 Y51.944 E55.60058
G1 X124.98 Y51.944 E55.68037
G1 X124.98 Y48.903 E55.78151
G1 X120.08 Y48.903 E55.94449
G1 X120.08 Y51.943 E56.0456
G1 X117.68 Y51.943 E56.12542
G1 X117.681 Y60.742 E56.41808
G0 F6000 X117.681 Y61.242
G0 X117.253 Y61.17
G0 X117.211 Y36.149
G0 X117.281 Y36.079
;TYPE:WALL-INNER
G1 F1200 X127.779 Y36.079 E56.76724
G1 X127.779 Y26.481 E57.08647
G1 X125.38 Y26.481 E57.16627
G1 X125.38 Y23.44 E57.26741
G1 X119.68 Y23.44 E57.45699
G1 X119.68 Y26.48 E57.5581
G1 X117.479 Y26.48 E57.63131
G1 X117.28 Y26.48 E57.63793
G1 X117.28 Y26.679 E57.64221
G1 X117.281 Y36.079 E57.95486
G0 F6000 X117.681 Y35.679
;TYPE:WALL-OUTER
G1 F1200 X127.379 Y35.679 E58.27741
G1 X127.379 Y26.881 E58.57003
G1 X124.98 Y26.881 E58.64983
G1 X124.98 Y23.84 E58.75097
G1 X120.08 Y23.84 E58.91394
G1 X120.08 Y26.88 E59.01506
G1 X117.68 Y26.88 E59.09488
G1 X117.681 Y35.679 E59.38754
G0 F6000 X117.681 Y36.179
G0 X102.786 Y36.149
G0 X102.716 Y36.079
;TYPE:WALL-INNER
G1 F1200 X102.716 Y26.481 E59.70677
G1 X100.317 Y26.481 E59.78656
G1 X100.317 Y23.44 E59.8877
G1 X94.617 Y23.44 E60.07728
G1 X94.617 Y26.48 E60.1784
G1 X92.417 Y26.48 E60.25157
G1 X92.218 Y26.48 E60.25819
G1 X92.218 Y26.679 E60.26247
G1 X92.219 Y36.079 E60.57511
G1 X102.716 Y36.079 E60.92425
G0 F6000 X102.316 Y35.679
;TYPE:WALL-OUTER
G1 F1200 X102.316 Y26.881 E61.21687
G1 X99.917 Y26.881 E61.29666
G1 X99.917 Y23.84 E61.3978
G1 X95.017 Y23.84 E61.56078
G1 X95.017 Y26.88 E61.66189
G1 X92.618 Y26.88 E61.74168
G1 X92.619 Y35.679 E62.03434
G1 X102.316 Y35.679 E62.35686
G0 F6000 X102.816 Y35.679
G0 X102.744 Y36.107
G0 X77.724 Y36.149
G0 X77.654 Y36.079
;TYPE:WALL-INNER
G1 F1200 X77.654 Y26.481 E62.67609
G1 X75.255 Y26.481 E62.75588
G1 X75.255 Y23.44 E62.85703
G1 X69.555 Y23.44 E63.04661
G1 X69.555 Y26.48 E63.14772
G1 X67.354 Y26.48 E63.22092
G1 X67.155 Y26.48 E63.22754
G1 X67.155 Y26.679 E63.23183
G1 X67.156 Y36.079 E63.54447
G1 X77.654 Y36.079 E63.89364
G0 F6000 X77.254 Y35.679
;TYPE:WALL-OUTER
G1 F1200 X77.254 Y26.881 E64.18626
G1 X74.855 Y26.881 E64.26605
G1 X74.855 Y23.84 E64.36719
G1 X69.955 Y23.84 E64.53017
G1 X69.955 Y26.88 E64.63128
G1 X67.555 Y26.88 E64.7111
G1 X67.556 Y35.679 E65.00376
G1 X77.254 Y35.679 E65.32632
G0 F6000 X77.754 Y35.679
G0 X77.682 Y36.107
G0 X52.661 Y36.149
G0 X52.591 Y36.079
;TYPE:WALL-INNER
G1 F1200 X52.591 Y26.481 E65.64555
G1 X50.193 Y26.481 E65.7253
G1 X50.193 Y23.44 E65.82645
G1 X44.492 Y23.44 E66.01606
G1 X44.492 Y26.48 E66.11718
